!!!!SEGMENT: pl-wtm--r-1726--001-006_stefani-jozef--piekna-dziewczyna-z-gandawy-kontredans-6.krn
!!!cenid: 18xx:1892
!!!COM: Stefani, Józef
!!!COM-rismID: pe30024097
!!!CDT: 1800/04/16-1876/03/19
!!!CNT: Polish
!!!GTL: Piękna dziewczyna z Gandawy
!!!OTL: Kontredans [6]
!!!OMV: 006
!!!PDT:
!!!AGN: Secular
!!!YEC: Copyright 2022 Narodowy Instytut Fryderyka Chopina (https://polishscores.org)
!!!YEM: License CC-BY-4.0 (https://creativecommons.org/licenses/by/4.0)
!!!SMS-siglum: PL-Wtm
!!!SMS-shelfmark: R 1726
!!!SMS-shelfwork: 001-006 G
!!!SMS-variant:
!!!SMS-altvar:
!!!NIFC-rismSourceID: 1001129098
!!!NIFC-rismChildID: 1001129106
!!!NIFC-islandoraID: pl-wtm:28458
!!!URL-pdf-islandora: https://repozytorium.nifc.pl/islandora/object/pl-wtm%3A28458/datastream/PDF/view
!!!URL-scan: https://polish.musicsources.pl/pl/lokalizacje/galeria/rekopisy/6463 @EN{Scan on Polish Music Sources Website} @PL{Skany w portalu Dziedzictwo Muzyki Polskiej w otwartym dostępie}
!!!IIIF:
!!!ONB-nifc: UWAGA: No. 6. Partie perkusji zapisane osobno na końcu rękopisu
!!!AIN: 1 bdrum 1 clars 1 cor 1 empty 1 picco 1 timpa 1 trngl 1 tromp 1 tromt 1 viola 2 violn
!!!key:
**kern	**dynam	**kern	**dynam	**kern	**dynam	**kern	**dynam	**kern	**dynam	**kern	**dynam	**kern	**dynam	**kern	**dynam	**kern	**dynam	**kern	**dynam	**kern	**kern	**dynam
*part12	*	*part11	*	*part10	*	*part9	*	*part8	*	*part7	*	*part6	*	*part5	*	*part4	*	*part3	*	*part2	*part1	*
*staff12	*	*staff11	*	*staff10	*	*staff9	*	*staff8	*	*staff7	*	*staff6	*	*staff5	*	*staff4	*	*staff3	*	*staff2	*staff1	*
*Iempty	*	*Iviola	*	*Ivioln	*	*Ivioln	*	*Ibdrum	*	*Itrngl	*	*Itimpa	*	*Itromt	*	*Itromp	*	*Icor	*	*Iclars	*Ipicco	*
*I"Basſi	*	*I"Viole	*	*I"Violnio 2o	*	*I"Violnio I	*	*I"G.C.	*	*I"Triangolo	*	*I"Timpani	*	*I"Trombone	*	*I"in C Trombe Chromatique	*	*I"in d: Corni	*	*I"in C Clarinetti	*I"Picolo Flauto	*
*I'b	*	*I'vla	*	*I'vn 2	*	*I'vn 1	*	*I'G.C.	*	*I'trngl	*	*I'timp	*	*I'trbn	*	*I'tr	*	*I'cor	*	*I'cl	*I'fl picc	*
*clefF4	*	*clefC3	*	*clefG2	*	*clefG2	*	*clefF4	*	*clefG2	*	*clefF4	*	*clefF4	*	*clefG2	*	*clefG2	*	*clefG2	*clefG2	*
*	*	*	*	*	*	*	*	*	*	*ITrd0c0	*	*	*	*	*	*	*	*ITrd6c10	*	*	*	*
*k[f#c#]	*	*k[f#c#]	*	*k[f#c#]	*	*k[f#c#]	*	*k[]	*	*k[]	*	*k[]	*	*k[f#c#]	*	*k[f#c#]	*	*k[f#c#]	*	*k[f#c#]	*k[f#c#]	*
*G:	*	*G:	*	*G:	*	*G:	*	*G:	*	*G:	*	*G:	*	*G:	*	*G:	*	*G:	*	*G:	*G:	*
*	*	*	*	*	*	*	*	*	*	*	*	*	*	*	*	*	*	*	*	*	*	*
*M2/4	*	*M2/4	*	*M2/4	*	*M2/4	*	*M2/4	*	*M2/4	*	*M2/4	*	*M2/4	*	*M2/4	*	*M2/4	*	*M2/4	*M2/4	*
*>[A,B,C,B]	*	*>[A,B,C,B]	*	*>[A,B,C,B]	*	*>[A,B,C,B]	*	*>[A,B,C,B]	*	*>[A,B,C,B]	*	*>[A,B,C,B]	*	*>[A,B,C,B]	*	*>[A,B,C,B]	*	*>[A,B,C,B]	*	*>[A,B,C,B]	*>[A,B,C,B]	*
*>A	*	*>A	*	*>A	*	*>A	*	*>A	*	*>A	*	*>A	*	*>A	*	*>A	*	*>A	*	*>A	*.A	*
!!LO:TX:t=P:problem:all\right:global
*	*	*	*	*	*	*	*	*	*	*	*	*	*	*	*	*^	*	*	*	*	*	*
!	!	!	!	!	!	!	!	!	!	!	!	!	!	!	!	!	!	!	!	!	!	!LO:TX:t=P:problem=nazwy głosów zgodnie z kartami nr 0003 oraz 0016	!
8r	.	8r	.	8r	.	8r	.	8ryy	.	8r	.	8r	.	8A\	.	8a/	8a\	.	8A\ 8a	f	8r	8r	.
=1	=1	=1	=1	=1	=1	=1	=1	=1	=1	=1	=1	=1	=1	=1	=1	=1	=1	=1	=1	=1	=1	=1	=1
!	!	!	!	!	!	!	!	!LO:TX:a:t=2.	!	!LO:TX:a:t=2.	!	!LO:TX:a:t=2.	!	!	!	!	!	!	!	!	!	!	!
2r	.	2r	.	2r	.	2r	.	2r	.	2r	.	2r	.	8A\L	.	8a/L	8a\L	.	8A\L 8a	.	2r	2r	.
.	.	.	.	.	.	.	.	.	.	.	.	.	.	16A\L	.	16a/L	16a\L	.	16A\L 16a	.	.	.	.
.	.	.	.	.	.	.	.	.	.	.	.	.	.	16A\JJ	.	16a/JJ	16a\JJ	.	16A\JJ 16a	.	.	.	.
.	.	.	.	.	.	.	.	.	.	.	.	.	.	8A\L	.	8a/L	8a\L	.	8A\L 8a	.	.	.	.
.	.	.	.	.	.	.	.	.	.	.	.	.	.	8A\J	.	8a/J	8a\J	.	8A\J 8a	.	.	.	.
=2	=2	=2	=2	=2	=2	=2	=2	=2	=2	=2	=2	=2	=2	=2	=2	=2	=2	=2	=2	=2	=2	=2	=2
*	*	*	*	*	*	*	*	*	*	*	*	*	*	*	*	*	*	*	*^	*	*^	*	*
!	!	!	!	!	!	!	!	!	!	!	!	!	!	!	!	!	!	!	!	!	!	!	!	!LO:TX:a:t=Col Vo. 1o.	!
!	!	!	!	!LO:TX:a:t=8va	!	!	!	!	!	!	!	!	!	!	!	!	!	!	!	!	!	!	!	!	!
4GG/	f	16b\LL	.	16b/LLyy	f	16bb\LL	f	2r	.	2r	.	2r	.	4G\	.	4b/	4g\	.	4g/	4e\	.	4b/	4g\	16bb\LLyy	f
.	.	16a\	.	16a/yy	.	16aa\	.	.	.	.	.	.	.	.	.	.	.	.	.	.	.	.	.	16aa\yy	.
.	.	16g\	.	16g/yy	.	16gg\	.	.	.	.	.	.	.	.	.	.	.	.	.	.	.	.	.	16gg\yy	.
.	.	16f#\JJ	.	16f#/JJyy	.	16ff#\JJ	.	.	.	.	.	.	.	.	.	.	.	.	.	.	.	.	.	16ff#\JJyy	.
4r	.	16e\LL	.	16e/LLyy	.	16ee\LL	.	.	.	.	.	.	.	4r	.	4r	4ryy	.	4r	4ryy	.	4r	4ryy	16ee\LLyy	.
.	.	16d\	.	16d/yy	.	16dd\	.	.	.	.	.	.	.	.	.	.	.	.	.	.	.	.	.	16dd\yy	.
.	.	16c#\	.	16c#/yy	.	16cc#\	.	.	.	.	.	.	.	.	.	.	.	.	.	.	.	.	.	16cc#\yy	.
.	.	16B\JJ	.	16B/JJyy	.	16b\JJ	.	.	.	.	.	.	.	.	.	.	.	.	.	.	.	.	.	16b\JJyy	.
=3	=3	=3	=3	=3	=3	=3	=3	=3	=3	=3	=3	=3	=3	=3	=3	=3	=3	=3	=3	=3	=3	=3	=3	=3	=3
4AA/	.	16A/LL	.	16A/LLyy	.	16a/LL	.	2r	.	2r	.	2AATT/	<	4A\	.	4a/	4f#\	.	4f#/	4d\	.	4a/	4f#\	16a/LLyy	.
.	.	16G#X/	.	16G#X/yy	.	16g#X/	.	.	.	.	.	.	.	.	.	.	.	.	.	.	.	.	.	16g#X/yy	.
.	.	16A/	.	16A/yy	.	16a/	.	.	.	.	.	.	.	.	.	.	.	.	.	.	.	.	.	16a/yy	.
.	.	16B/JJ	.	16B/JJyy	.	16b/JJ	.	.	.	.	.	.	.	.	.	.	.	.	.	.	.	.	.	16b/JJyy	.
4r	.	16c#\LL	.	16c#/LLyy	.	16cc#\LL	.	.	.	.	.	.	.	4r	.	4r	4ryy	.	4r	4ryy	.	4r	4ryy	16cc#\LLyy	.
.	.	16d\	.	16d/yy	.	16dd\	.	.	.	.	.	.	.	.	.	.	.	.	.	.	.	.	.	16dd\yy	.
.	.	16e\	.	16e/yy	.	16ee\	.	.	.	.	.	.	.	.	.	.	.	.	.	.	.	.	.	16ee\yy	.
.	.	16f#\JJ	.	16f#/JJyy	.	16ff#\JJ	.	.	.	.	.	.	.	.	.	.	.	.	.	.	.	.	.	16ff#\JJyy	.
*	*	*	*	*	*	*	*	*	*	*	*	*	*	*	*	*	*	*	*v	*v	*	*	*	*	*
=4	=4	=4	=4	=4	=4	=4	=4	=4	=4	=4	=4	=4	=4	=4	=4	=4	=4	=4	=4	=4	=4	=4	=4	=4
!	!	!	!	!	!	!	!LO:SIC:s=4C/	!	!LO:SIC:s=4ee\	!	!	!	!	!	!	!	!	!	!	!	!	!	!	!
4A\	.	16g\LL	.	16g/LLyy	.	16gg\LL	.	4Ra/	.	4Ree\	.	2AATTT/	[[	4AA/	.	4a/	4e\	.	4A/ 4e	.	4cc#/	4g\	16gg\LLyy	.
.	.	16f#\	.	16f#/yy	.	16ff#\	.	.	.	.	.	.	.	.	.	.	.	.	.	.	.	.	16ff#\yy	.
.	.	16e\	.	16e/yy	.	16ee\	.	.	.	.	.	.	.	.	.	.	.	.	.	.	.	.	16ee\yy	.
.	.	16f#\JJ	.	16f#/JJyy	.	16ff#\JJ	.	.	.	.	.	.	.	.	.	.	.	.	.	.	.	.	16ff#\JJyy	.
4r	.	16g\LL	.	16g/LLyy	.	16gg\LL	.	4r	.	4r	.	.	.	4r	.	4r	4ryy	.	4r	.	4r	4ryy	16gg\LLyy	.
.	.	16a\	.	16a/yy	.	16aa\	.	.	.	.	.	.	.	.	.	.	.	.	.	.	.	.	16aa\yy	.
.	.	16b\	.	16b/yy	.	16bb\	.	.	.	.	.	.	.	.	.	.	.	.	.	.	.	.	16bb\yy	.
.	.	16cc#\JJ	.	16cc#/JJyy	.	16ccc#\JJ	.	.	.	.	.	.	.	.	.	.	.	.	.	.	.	.	16ccc#\JJyy	.
*	*	*	*	*	*	*	*	*	*	*	*	*	*	*	*	*v	*v	*	*	*	*v	*v	*	*
!!LO:PB:g=original
=5	=5	=5	=5	=5	=5	=5	4Ra/	=5	4Ree\	=5	=5	=5	=5	=5	=5	=5	=5	=5	=5	=5	=5	=5
*	*	*	*	*	*	*	*	*	*	*2\right	*	*	*	*	*	*	*	*	*	*	*	*
*	*	*	*	*	*	*	*	*	*	*tremolo	*	*	*	*	*	*	*	*	*	*	*	*
!	!	!	!	!LO:TX:a:t=8va	!	!	!	!LO:SIC:s=4C/	!	!LO:SIC:s=8ee\L	!	!	!	!	!	!	!	!	!	!	!	!
4D\	.	8dd\	.	4dd\yy	.	4ddd\	.	4Ra/	f	8Ree\L	f	4D/	f	4D\	.	8d/ 8f#	.	8F#/ 8d	.	4f#/ 4dd	4ddd\yy	.
*	*	*tremolo	*	*	*	*	*	*	*	*	*	*	*	*	*	*	*	*	*	*	*	*
!	!	!	!	!	!	!	!	!	!	!LO:SIC:s=8ee\	!	!	!	!	!	!	!	!	!	!	!	!
.	.	8F#/L 8d	.	.	.	.	.	.	.	8Ree\	.	.	.	.	.	8d/L 8f#	.	8D/L 8A	.	.	.	.
!	!	!	!	!	!	!	!	!	!	!LO:SIC:s=8ee\	!	!	!	!	!	!	!	!	!	!	!	!
4r	.	8F#/ 8d	.	8ryy	.	8r	.	4r	.	8Ree\	.	4r	.	4r	.	8d/ 8f#	.	8D/ 8A	.	8r	8ryy	.
!	!	!	!	!	!	!	!	!	!	!LO:SIC:s=8ee\J	!	!	!	!	!	!	!	!	!	!	!	!
.	.	8F#/J 8d	.	8a/yy	.	8aa\	.	.	.	8Ree\J	.	.	.	.	.	8d/J 8f#	.	8D/J 8A	.	8a/	8aa\yy	.
=6||	=6||	=6||	=6||	=6||	=6||	=6||	=6||	=6||	=6||	=6||	=6||	=6||	=6||	=6||	=6||	=6||	=6||	=6||	=6||	=6||	=6||	=6||
*>B	*	*>B	*	*>B	*	*>B	*	*>B	*	*>B	*	*>B	*	*>B	*	*>B	*	*>B	*	*>B	*>B	*
*	*	*	*	*	*	*	*	*	*	*	*	*	*	*	*	*	*	*	*	*^	*	*
*	*	*	*	*	*	*	*	*	*	*	*	*	*	*	*	*	*	*	*	*	*2\right	*	*
*	*	*	*	*	*	*	*	*	*	*	*	*	*	*	*	*tremolo	*	*tremolo	*	*	*tremolo	*	*
!	!	!	!	!	!	!LO:TX:t=[segno]:problem=znak segno na kresce taktowej	!	!	!	!	!	!	!	!	!	!	!	!	!	!	!	!LO:TX:t=[segno]:problem=znak segno na kresce taktowej	!
!LO:TX:t=[segno]:problem=znak segno na kresce taktowej	!	!	!	!LO:N:vis=8	!	!LO:N:vis=8	!	!LO:TX:t=[segno]:problem=znak segno na kresce taktowej	!	!	!	!LO:TX:t=[segno]:problem=znak segno na kresce taktowej	!	!LO:TX:t=[segno]:problem=znak segno na kresce taktowej	!	!	!	!	!	!	!	!LO:N:vis=8	!
!	!	!	!	!	!	!	!	!LO:SIC:s=4C/	!	!LO:SIC:s=8ee\L	!	!	!	!	!	!	!	!	!	!	!	!	!
4D\	.	8F#/L 8d	.	(8.dd\Lyy	.	(8.ddd\L	.	4Ra/	.	8Ree\L	.	4D/	.	4D\	.	8d/L 8f#	.	8D/L 8A	.	(8.dd/L	8f#\L	(8.ddd\Lyy	.
!	!	!	!	!	!	!	!	!	!	!LO:SIC:s=8ee\	!	!	!	!	!	!	!	!	!	!	!	!	!
.	.	8F#/ 8d	.	.	.	.	.	.	.	8Ree\	.	.	.	.	.	8d/ 8f#	.	8D/ 8A	.	.	8f#\	.	.
.	.	.	.	32cc#\LLyy	.	32ccc#\LL	.	.	.	.	.	.	.	.	.	.	.	.	.	32cc#/LL	.	32ccc#\LLyy	.
.	.	.	.	32b\JJJyy	.	32bb\JJJ	.	.	.	.	.	.	.	.	.	.	.	.	.	32b/JJJ	.	32bb\JJJyy	.
!	!	!	!	!	!	!	!	!	!	!LO:SIC:s=8ee\	!	!	!	!	!	!	!	!	!	!	!	!	!
4r	.	8F#/ 8d	.	8a/L)yy	.	8aa\L)	.	4r	.	8Ree\	.	4r	.	4r	.	8d/ 8f#	.	8D/ 8A	.	8a/L)	8f#\	8aa\L)yy	.
!	!	!	!	!	!	!	!	!	!	!LO:SIC:s=8ee\J	!	!	!	!	!	!	!	!	!	!	!	!	!
.	.	8F#/J 8d	.	8a'/Jyy	.	8aa'\J	.	.	.	8Ree\J	.	.	.	.	.	8d/J 8f#	.	8D/J 8A	.	8a'/J	8f#\J	8aa'\Jyy	.
*	*	*	*	*	*	*	*	*	*	*	*	*	*	*	*	*	*	*	*	*	*	*	*
=7	=7	=7	=7	=7	=7	=7	=7	=7	=7	=7	=7	=7	=7	=7	=7	=7	=7	=7	=7	=7	=7	=7	=7
*	*	*	*	*	*	*	*	*	*	*	*	*	*	*	*	*	*	*	*	*Xtremolo	*tremolo	*	*
*rep	*	*rep	*	*	*	*rep	*	*	*	*	*	*rep	*	*	*	*rep	*	*rep	*	*rep	*rep	*rep	*
!	!	!	!	!LO:N:vis=8	!	!LO:N:vis=8	!	!LO:SIC:s=4C/	!	!LO:SIC:s=8ee\L	!	!	!	!	!	!	!	!	!	!	!	!LO:N:vis=8	!
4D\	.	8F#/L 8d	.	(8.dd\Lyy	.	(8.ddd\L	.	4Ra/	.	8Ree\L	.	4D/	.	4D\	.	8d/L 8f#	.	8D/L 8A	.	(8.dd/L	8f#\L	(8.ddd\Lyy	.
!	!	!	!	!	!	!	!	!	!	!LO:SIC:s=8ee\	!	!	!	!	!	!	!	!	!	!	!	!	!
.	.	8F#/ 8d	.	.	.	.	.	.	.	8Ree\	.	.	.	.	.	8d/ 8f#	.	8D/ 8A	.	.	8f#\	.	.
.	.	.	.	32cc#\LLyy	.	32ccc#\LL	.	.	.	.	.	.	.	.	.	.	.	.	.	32cc#/LL	.	32ccc#\LLyy	.
.	.	.	.	32b\JJJyy	.	32bb\JJJ	.	.	.	.	.	.	.	.	.	.	.	.	.	32b/JJJ	.	32bb\JJJyy	.
!	!	!	!	!	!	!	!	!	!	!LO:SIC:s=8ee\	!	!	!	!	!	!	!	!	!	!	!	!	!
4r	.	8F#/ 8d	.	8a/L)yy	.	8aa\L)	.	4r	.	8Ree\	.	4r	.	4r	.	8d/ 8f#	.	8D/ 8A	.	8a/L)	8f#\	8aa\L)yy	.
!	!	!	!	!	!	!	!	!	!	!LO:SIC:s=8ee\J	!	!	!	!	!	!	!	!	!	!	!	!	!
.	.	8F#/J 8d	.	8a'/Jyy	.	8aa'\J	.	.	.	8Ree\J	.	.	.	.	.	8d/J 8f#	.	8D/J 8A	.	8a'/J	8f#\J	8aa'\Jyy	.
*Xrep	*	*Xrep	*	*	*	*Xrep	*	*	*	*	*	*Xrep	*	*	*	*Xrep	*	*Xrep	*	*Xrep	*Xrep	*Xrep	*
!	!	!	!	!	!	!	!	!LO:LB:g=original	!	!LO:LB:g=original	!	!LO:LB:g=original	!	!	!	!	!	!	!	!	!	!	!
=8	=8	=8	=8	=8	=8	=8	=8	=8	=8	=8	=8	=8	=8	=8	=8	=8	=8	=8	=8	=8	=8	=8	=8
.	.	.	.	(8qee/yy	.	(8qeee/	.	.	.	.	.	.	.	.	.	.	.	.	.	(8qee/	.	(8qeee/yy	.
*rep	*	*rep	*	*	*	*	*	*	*	*	*	*	*	*	*	*rep	*	*rep	*	*	*rep	*	*
!	!	!	!	!	!	!	!	!LO:SIC:s=4C/	!	!LO:SIC:s=8ee\L	!	!	!	!	!	!	!	!	!	!	!	!	!
4D\	.	8F#/L 8d	.	8dd\L)yy	.	8ddd\L)	.	4Ra/	.	8Ree\L	.	4D/	.	4D\	.	8d/L 8f#	.	8D/L 8A	.	8dd/L)	8f#\L	8ddd\L)yy	.
!	!	!	!	!	!	!	!	!	!	!LO:SIC:s=8ee\	!	!	!	!	!	!	!	!	!	!	!	!	!
.	.	8F#/ 8d	.	8cc#'\yy	.	8ccc#'\	.	.	.	8Ree\	.	.	.	.	.	8d/ 8f#	.	8D/ 8A	.	8cc#'/	8f#\	8ccc#'\yy	.
!	!	!	!	!	!	!	!	!	!	!LO:SIC:s=8ee\	!	!	!	!	!	!	!	!	!	!	!	!	!
4r	.	8F#/ 8d	.	8dd'\yy	.	8ddd'\	.	4r	.	8Ree\	.	4r	.	4r	.	8d/ 8f#	.	8D/ 8A	.	8dd'/	8f#\	8ddd'\yy	.
!	!	!	!	!	!	!	!	!	!	!LO:SIC:s=8ee\J	!	!	!	!	!	!	!	!	!	!	!	!	!
.	.	8F#/J 8d	.	8ff#'\Jyy	.	8fff#'\J	.	.	.	8Ree\J	.	.	.	.	.	8d/J 8f#	.	8D/J 8A	.	8ff#'/J	8f#\J	8fff#'\Jyy	.
*Xrep	*	*Xrep	*	*	*	*	*	*	*	*	*	*	*	*	*	*Xrep	*	*Xrep	*	*	*Xrep	*	*
=9	=9	=9	=9	=9	=9	=9	=9	=9	=9	=9	=9	=9	=9	=9	=9	=9	=9	=9	=9	=9	=9	=9	=9
*	*	*	*	*	*	*	*	*	*	*rep	*	*	*	*	*	*	*	*	*	*Xtremolo	*tremolo	*	*
!	!	!	!	!	!	!	!	!LO:SIC:s=4C/	!	!LO:SIC:s=8ee\L	!	!	!	!	!	!	!	!	!	!	!	!	!
4AA/	.	8G/L 8c#	.	(4ee\yy	.	(4eee\	.	4Ra/	.	8Ree\L	.	4AA/	.	4AA/	.	8c#/L 8e	.	8AA/L 8A	.	(4ee/	8g\L	(4eee\yy	.
!	!	!	!	!	!	!	!	!	!	!LO:SIC:s=8ee\	!	!	!	!	!	!	!	!	!	!	!	!	!
.	.	8G/ 8c#	.	.	.	.	.	.	.	8Ree\	.	.	.	.	.	8c#/ 8e	.	8AA/ 8A	.	.	8g\	.	.
!	!	!	!	!	!	!	!	!	!	!LO:SIC:s=8ee\	!	!	!	!	!	!	!	!	!	!	!	!	!
4r	.	8G/ 8c#	.	8a/L)yy	.	8aa\L)	.	4r	.	8Ree\	.	4r	.	4r	.	8c#/ 8e	.	8AA/ 8A	.	8a/L)	8g\	8aa\L)yy	.
!	!	!	!	!	!	!	!	!	!	!LO:SIC:s=8ee\J	!	!	!	!	!	!	!	!	!	!	!	!	!
.	.	8G/J 8c#	.	8a'/Jyy	.	8aa'\J	.	.	.	8Ree\J	.	.	.	.	.	8c#/J 8e	.	8AA/J 8A	.	8a'/J	8g\J	8aa'\Jyy	.
*	*	*	*	*	*	*	*	*	*	*Xrep	*	*	*	*	*	*	*	*	*	*	*	*	*
=10	=10	=10	=10	=10	=10	=10	=10	=10	=10	=10	=10	=10	=10	=10	=10	=10	=10	=10	=10	=10	=10	=10	=10
*	*	*	*	*	*	*	*	*	*	*	*	*	*	*	*	*	*	*	*	*Xtremolo	*tremolo	*	*
*rep	*	*rep	*	*	*	*	*	*rep	*	*rep	*	*rep	*	*rep	*	*rep	*	*rep	*	*	*rep	*	*
!	!	!	!	!	!	!	!	!LO:SIC:s=4C/	!	!LO:SIC:s=8ee\L	!	!	!	!	!	!	!	!	!	!	!	!	!
4AA/	.	8G/L 8c#	.	(8.ee\Lyy	.	(8.eee\L	.	4Ra/	.	8Ree\L	.	4AA/	.	4AA/	.	8c#/L 8e	.	8AA/L 8A	.	(8.ee/L	8g\L	(8.eee\Lyy	.
!	!	!	!	!	!	!	!	!	!	!LO:SIC:s=8ee\	!	!	!	!	!	!	!	!	!	!	!	!	!
.	.	8G/ 8c#	.	.	.	.	.	.	.	8Ree\	.	.	.	.	.	8c#/ 8e	.	8AA/ 8A	.	.	8g\	.	.
.	.	.	.	32cc#\LLyy	.	32ccc#\LL	.	.	.	.	.	.	.	.	.	.	.	.	.	32cc#/LL	.	32ccc#\LLyy	.
.	.	.	.	32b\JJJyy	.	32bb\JJJ	.	.	.	.	.	.	.	.	.	.	.	.	.	32b/JJJ	.	32bb\JJJyy	.
!	!	!	!	!	!	!	!	!	!	!LO:SIC:s=8ee\	!	!	!	!	!	!	!	!	!	!	!	!	!
4r	.	8G/ 8c#	.	8a/L)yy	.	8aa\L)	.	4r	.	8Ree\	.	4r	.	4r	.	8c#/ 8e	.	8AA/ 8A	.	8a/L)	8g\	8aa\L)yy	.
!	!	!	!	!	!	!	!	!	!	!LO:SIC:s=8ee\J	!	!	!	!	!	!	!	!	!	!	!	!	!
.	.	8G/J 8c#	.	8a'/Jyy	.	8aa'\J	.	.	.	8Ree\J	.	.	.	.	.	8c#/J 8e	.	8AA/J 8A	.	8a'/J	8g\J	8aa'\Jyy	.
*Xrep	*	*Xrep	*	*	*	*	*	*Xrep	*	*Xrep	*	*Xrep	*	*Xrep	*	*Xrep	*	*Xrep	*	*	*Xrep	*	*
=11	=11	=11	=11	=11	=11	=11	=11	=11	=11	=11	=11	=11	=11	=11	=11	=11	=11	=11	=11	=11	=11	=11	=11
*	*	*	*	*	*	*	*	*	*	*	*	*	*	*rep	*	*rep	*	*rep	*	*Xtremolo	*tremolo	*rep	*
*rep	*	*rep	*	*	*	*rep	*	*rep	*	*rep	*	*rep	*	*	*	*	*	*	*	*rep	*rep	*	*
!	!	!	!	!	!	!	!	!LO:SIC:s=4C/	!	!LO:SIC:s=8ee\L	!	!	!	!	!	!	!	!	!	!	!	!	!
4AA/	.	8G/L 8c#	.	(8.ee\Lyy	.	(8.eee\L	.	4Ra/	.	8Ree\L	.	4AA/	.	4AA/	.	8c#/L 8e	.	8AA/L 8A	.	(8.ee/L	8g\L	(8.eee\Lyy	.
!	!	!	!	!	!	!	!	!	!	!LO:SIC:s=8ee\	!	!	!	!	!	!	!	!	!	!	!	!	!
.	.	8G/ 8c#	.	.	.	.	.	.	.	8Ree\	.	.	.	.	.	8c#/ 8e	.	8AA/ 8A	.	.	8g\	.	.
.	.	.	.	32cc#\LLyy	.	32ccc#\LL	.	.	.	.	.	.	.	.	.	.	.	.	.	32cc#/LL	.	32ccc#\LLyy	.
.	.	.	.	32b\JJJyy	.	32bb\JJJ	.	.	.	.	.	.	.	.	.	.	.	.	.	32b/JJJ	.	32bb\JJJyy	.
!	!	!	!	!	!	!	!	!	!	!LO:SIC:s=8ee\	!	!	!	!	!	!	!	!	!	!	!	!	!
4r	.	8G/ 8c#	.	8a/L)yy	.	8aa\L)	.	4r	.	8Ree\	.	4r	.	4r	.	8c#/ 8e	.	8AA/ 8A	.	8a/L)	8g\	8aa\L)yy	.
!	!	!	!	!	!	!	!	!	!	!LO:SIC:s=8ee\J	!	!	!	!	!	!	!	!	!	!	!	!	!
.	.	8G/J 8c#	.	8a'/Jyy	.	8aa'\J	.	.	.	8Ree\J	.	.	.	.	.	8c#/J 8e	.	8AA/J 8A	.	8a'/J	8g\J	8aa'\Jyy	.
*Xrep	*	*Xrep	*	*	*	*Xrep	*	*Xrep	*	*Xrep	*	*Xrep	*	*Xrep	*	*Xrep	*	*Xrep	*	*Xrep	*Xrep	*Xrep	*
!!LO:LB:g=original
=12	=12	=12	=12	=12	=12	=12	=12	=12	=12	=12	=12	=12	=12	=12	=12	=12	=12	=12	=12	=12	=12	=12	=12
*	*	*	*	*	*	*	*	*rep	*	*rep	*	*rep	*	*	*	*	*	*	*	*	*	*	*
.	.	.	.	((8qff#/yy	.	((8qfff#/	.	.	.	.	.	.	.	.	.	.	.	.	.	(8qff#/	.	8qfff#/	.
!	!	!	!	!	!	!	!	!LO:SIC:s=4C/	!	!LO:SIC:s=8ee\L	!	!	!	!	!	!	!	!	!	!	!	!LO:N:vis=4	!
4AA/	.	8G/L 8c#	.	8ee\L))yy	.	8eee\L))	.	4Ra/	.	8Ree\L	.	4AA/	.	4AA/	.	8c#X/L 8e	.	8AA/L 8A	.	8ee/L)	8g\L	8eee\L	.
!	!	!	!	!	!	!	!	!	!	!LO:SIC:s=8ee\	!	!	!	!	!	!	!	!	!	!	!	!	!
.	.	8G/ 8c#	.	8dd#X'\yy	.	8ddd#X'\	.	.	.	8Ree\	.	.	.	.	.	8c#/ 8e	.	8AA/ 8A	.	8dd#X'/	8g\	8ddd#X'\yy	.
!	!	!	!	!	!	!	!	!	!	!LO:SIC:s=8ee\	!	!	!	!	!	!	!	!	!	!	!	!	!
4r	.	8G/ 8c#	.	8ee'\yy	.	8eee'\	.	4r	.	8Ree\	.	4r	.	4r	.	8c#/ 8e	.	8AA/ 8A	.	8ee'/	8g\	8eee'\yy	.
!	!	!	!	!	!	!	!	!	!	!LO:SIC:s=8ee\J	!	!	!	!	!	!	!	!	!	!	!	!	!
.	.	8G/J 8c#	.	8ff#'\Jyy	.	8fff#'\J	.	.	.	8Ree\J	.	.	.	.	.	8c#/J 8e	.	8AA/J 8A	.	8ff#'/J	8g\J	8fff#'\Jyy	.
*	*	*	*	*	*	*	*	*Xrep	*	*Xrep	*	*Xrep	*	*	*	*	*	*	*	*	*	*	*
=13	=13	=13	=13	=13	=13	=13	=13	=13	=13	=13	=13	=13	=13	=13	=13	=13	=13	=13	=13	=13	=13	=13	=13
*	*	*	*	*	*	*	*	*rep	*	*rep	*	*	*	*	*	*	*	*	*	*Xtremolo	*tremolo	*	*
!	!	!	!	!	!	!	!	!LO:SIC:s=4C/	!	!LO:SIC:s=8ee\L	!	!	!	!	!	!	!	!	!	!	!	!	!
4D\	.	8F#/L 8d	.	(4ddn\yy	.	(4dddn\	.	4Ra/	.	8Ree\L	.	4D/	.	4D\	.	8d/L 8f#	.	8D/L 8A	.	(4ddn/	8f#\L	(4dddn\yy	.
!	!	!	!	!	!	!	!	!	!	!LO:SIC:s=8ee\	!	!	!	!	!	!	!	!	!	!	!	!	!
.	.	8F#/ 8d	.	.	.	.	.	.	.	8Ree\	.	.	.	.	.	8d/ 8f#	.	8D/ 8A	.	.	8f#\	.	.
!	!	!	!	!	!	!	!	!	!	!LO:SIC:s=8ee\	!	!	!	!	!	!	!	!	!	!	!	!	!
4r	.	8F#/ 8d	.	8a/L)yy	.	8aa\L)	.	4r	.	8Ree\	.	4r	.	4r	.	8d/ 8f#	.	8D/ 8A	.	8a/L)	8f#\	8aa\L)yy	.
!	!	!	!	!	!	!	!	!	!	!LO:SIC:s=8ee\J	!	!	!	!	!	!	!	!	!	!	!	!	!
.	.	8F#/J 8d	.	8a'/Jyy	.	8aa'\J	.	.	.	8Ree\J	.	.	.	.	.	8d/J 8f#	.	8D/J 8A	.	8a'/J	8f#\J	8aa'\Jyy	.
*	*	*	*	*	*	*	*	*Xrep	*	*Xrep	*	*	*	*	*	*	*	*	*	*	*	*	*
=14	=14	=14	=14	=14	=14	=14	=14	=14	=14	=14	=14	=14	=14	=14	=14	=14	=14	=14	=14	=14	=14	=14	=14
*	*	*	*	*	*	*	*	*	*	*	*	*	*	*	*	*	*	*	*	*Xtremolo	*tremolo	*	*
*	*	*rep	*	*	*	*	*	*rep	*	*rep	*	*rep	*	*rep	*	*rep	*	*rep	*	*	*rep	*	*
!	!	!	!	!	!	!	!	!LO:SIC:s=4C/	!	!LO:SIC:s=8ee\L	!	!	!	!	!	!	!	!	!	!	!	!	!
4D\	.	8F#/L 8d	.	(8.dd\Lyy	.	(8.ddd\L	.	4Ra/	.	8Ree\L	.	4D/	.	4D\	.	8d/L 8f#	.	8D/L 8A	.	(8.dd/L	8f#\L	(8.ddd\Lyy	.
!	!	!	!	!	!	!	!	!	!	!LO:SIC:s=8ee\	!	!	!	!	!	!	!	!	!	!	!	!	!
.	.	8F#/ 8d	.	.	.	.	.	.	.	8Ree\	.	.	.	.	.	8d/ 8f#	.	8D/ 8A	.	.	8f#\	.	.
.	.	.	.	32cc#\LLyy	.	32ccc#\LL	.	.	.	.	.	.	.	.	.	.	.	.	.	32cc#/LL	.	32ccc#\LLyy	.
.	.	.	.	32b\JJJyy	.	32bb\JJJ	.	.	.	.	.	.	.	.	.	.	.	.	.	32b/JJJ	.	32bb\JJJyy	.
!	!	!	!	!	!	!	!	!	!	!LO:SIC:s=8ee\	!	!	!	!	!	!	!	!	!	!	!	!	!
4r	.	8F#/ 8d	.	8a/L)yy	.	8aa\L)	.	4r	.	8Ree\	.	4r	.	4r	.	8d/ 8f#	.	8D/ 8A	.	8a/L)	8f#\	8aa\L)yy	.
!	!	!	!	!	!	!	!	!	!	!LO:SIC:s=8ee\J	!	!	!	!	!	!	!	!	!	!	!	!	!
.	.	8F#/J 8d	.	8a'/Jyy	.	8aa'\J	.	.	.	8Ree\J	.	.	.	.	.	8d/J 8f#	.	8D/J 8A	.	8a'/J	8f#\J	8aa'\Jyy	.
*	*	*Xrep	*	*	*	*	*	*Xrep	*	*Xrep	*	*Xrep	*	*Xrep	*	*Xrep	*	*Xrep	*	*	*Xrep	*	*
=15	=15	=15	=15	=15	=15	=15	=15	=15	=15	=15	=15	=15	=15	=15	=15	=15	=15	=15	=15	=15	=15	=15	=15
*	*	*	*	*	*	*	*	*	*	*	*	*	*	*	*	*	*	*	*	*Xtremolo	*tremolo	*	*
*rep	*	*rep	*	*	*	*rep	*	*rep	*	*rep	*	*rep	*	*rep	*	*rep	*	*rep	*	*rep	*rep	*rep	*
!	!	!	!	!	!	!	!	!LO:SIC:s=4C/	!	!LO:SIC:s=8ee\L	!	!	!	!	!	!	!	!	!	!	!	!	!
4D\	.	8F#/L 8d	.	(8.dd\Lyy	.	(8.ddd\L	.	4Ra/	.	8Ree\L	.	4D/	.	4D\	.	8d/L 8f#	.	8D/L 8A	.	(8.dd/L	8f#\L	(8.ddd\Lyy	.
!	!	!	!	!	!	!	!	!	!	!LO:SIC:s=8ee\	!	!	!	!	!	!	!	!	!	!	!	!	!
.	.	8F#/ 8d	.	.	.	.	.	.	.	8Ree\	.	.	.	.	.	8d/ 8f#	.	8D/ 8A	.	.	8f#\	.	.
.	.	.	.	32cc#\LLyy	.	32ccc#\LL	.	.	.	.	.	.	.	.	.	.	.	.	.	32cc#/LL	.	32ccc#\LLyy	.
.	.	.	.	32b\JJJyy	.	32bb\JJJ	.	.	.	.	.	.	.	.	.	.	.	.	.	32b/JJJ	.	32bb\JJJyy	.
!	!	!	!	!	!	!	!	!	!	!LO:SIC:s=8ee\	!	!	!	!	!	!	!	!	!	!	!	!	!
4r	.	8F#/ 8d	.	8a/L)yy	.	8aa\L)	.	4r	.	8Ree\	.	4r	.	4r	.	8d/ 8f#	.	8D/ 8A	.	8a/L)	8f#\	8aa\L)yy	.
!	!	!	!	!	!	!	!	!	!	!LO:SIC:s=8ee\J	!	!	!	!	!	!	!	!	!	!	!	!	!
.	.	8F#/J 8d	.	8a'/Jyy	.	8aa'\J	.	.	.	8Ree\J	.	.	.	.	.	8d/J 8f#	.	8D/J 8A	.	8a'/J	8f#\J	8aa'\Jyy	.
*Xrep	*	*Xrep	*	*	*	*Xrep	*	*Xrep	*	*Xrep	*	*Xrep	*	*Xrep	*	*Xrep	*	*Xrep	*	*Xrep	*Xrep	*Xrep	*
=16	=16	=16	=16	=16	=16	=16	=16	=16	=16	=16	=16	=16	=16	=16	=16	=16	=16	=16	=16	=16	=16	=16	=16
*	*	*	*	*	*	*	*	*rep	*	*rep	*	*rep	*	*	*	*	*	*	*	*	*	*	*
.	.	.	.	(8qee/yy	.	(8qeee/	.	.	.	.	.	.	.	.	.	.	.	.	.	(8qee/	.	(8qeee/yy	.
*rep	*	*rep	*	*	*	*	*	*	*	*	*	*	*	*rep	*	*rep	*	*rep	*	*	*rep	*	*
!	!	!	!	!	!	!	!	!LO:SIC:s=4C/	!	!LO:SIC:s=8ee\L	!	!	!	!	!	!	!	!	!	!	!	!	!
4D\	.	8F#/L 8d	.	8dd\L)yy	.	8ddd\L)	.	4Ra/	.	8Ree\L	.	4D/	.	4D\	.	8d/L 8f#	.	8D/L 8A	.	8dd/L)	8f#\L	8ddd\L)yy	.
!	!	!	!	!	!	!	!	!	!	!LO:SIC:s=8ee\	!	!	!	!	!	!	!	!	!	!	!	!	!
.	.	8F#/ 8d	.	8cc#'\yy	.	8ccc#'\	.	.	.	8Ree\	.	.	.	.	.	8d/ 8f#	.	8D/ 8A	.	8cc#'>/	8f#\	8ccc#'\yy	.
!	!	!	!	!	!	!	!	!	!	!LO:SIC:s=8ee\	!	!	!	!	!	!	!	!	!	!	!	!	!
4r	.	8F#/ 8d	.	8dd'\yy	.	8ddd'\	.	4r	.	8Ree\	.	4r	.	4r	.	8d/ 8f#	.	8D/ 8A	.	8dd'>/	8f#\	8ddd'\yy	.
!	!	!	!	!	!	!	!	!	!	!LO:SIC:s=8ee\J	!	!	!	!	!	!	!	!	!	!	!	!	!
.	.	8F#/J 8d	.	8ff#'\Jyy	.	8fff#'\J	.	.	.	8Ree\J	.	.	.	.	.	8d/J 8f#	.	8D/J 8A	.	8ff#'>/J	8f#\J	8fff#'\Jyy	.
*Xrep	*	*Xrep	*	*	*	*	*	*Xrep	*	*Xrep	*	*Xrep	*	*Xrep	*	*Xrep	*	*Xrep	*	*	*Xrep	*	*
!	!	!	!	!	!	!	!	!LO:PB:g=original	!	!LO:PB:g=original	!	!LO:PB:g=original	!	!	!	!	!	!	!	!	!	!	!
=17	=17	=17	=17	=17	=17	=17	=17	=17	=17	=17	=17	=17	=17	=17	=17	=17	=17	=17	=17	=17	=17	=17	=17
*	*	*	*	*	*	*	*	*	*	*	*	*	*	*	*	*	*	*	*	*Xtremolo	*tremolo	*	*
!	!	!	!	!	!	!	!	!LO:SIC:s=4C/	!	!LO:SIC:s=8ee\L	!	!	!	!	!	!	!	!	!	!	!	!	!
4AA/	.	8G/L 8c#	.	(4ee\yy	.	(4eee\	.	4Ra/	.	8Ree\L	.	4AA/	.	4AA/	.	8c#/L 8e	.	8AA/L 8A	.	(4ee/	8g\L	(4eee\yy	.
!	!	!	!	!	!	!	!	!	!	!LO:SIC:s=8ee\	!	!	!	!	!	!	!	!	!	!	!	!	!
.	.	8G/ 8c#	.	.	.	.	.	.	.	8Ree\	.	.	.	.	.	8c#/ 8e	.	8AA/ 8A	.	.	8g\	.	.
!	!	!	!	!	!	!	!	!	!	!LO:SIC:s=8ee\	!	!	!	!	!	!	!	!	!	!	!	!	!
4r	.	8G/ 8c#	.	8a/L)yy	.	8aa\L)	.	4r	.	8Ree\	.	4r	.	4r	.	8c#/ 8e	.	8AA/ 8A	.	8a/L)	8g\	8aa\L)yy	.
!	!	!	!	!	!	!	!	!	!	!LO:SIC:s=8ee\J	!	!	!	!	!	!	!	!	!	!	!	!	!
.	.	8G/J 8c#	.	8a'/Jyy	.	8aa'\J	.	.	.	8Ree\J	.	.	.	.	.	8c#/J 8e	.	8AA/J 8A	.	8a'/J	8g\J	8aa'\Jyy	.
!!LO:PB:g=original
=18	=18	=18	=18	=18	=18	=18	=18	=18	=18	=18	=18	=18	=18	=18	=18	=18	=18	=18	=18	=18	=18	=18	=18
*	*	*	*	*	*	*	*	*	*	*rep	*	*rep	*	*	*	*	*	*	*	*Xtremolo	*tremolo	*	*
!	!	!	!	!	!	!	!	!LO:SIC:s=4C/	!	!LO:SIC:s=8ee\L	!	!	!	!	!	!	!	!	!	!	!	!	!
4AA/	.	8G/L 8c#	.	(8.ee\Lyy	.	(8.eee\L	.	4Ra/	.	8Ree\L	.	4AA/	.	4AA/	.	8c#/L 8e	.	8AA/L 8A	.	(8.ee/L	8g\L	(8.eee\Lyy	.
!	!	!	!	!	!	!	!	!	!	!LO:SIC:s=8ee\	!	!	!	!	!	!	!	!	!	!	!	!	!
.	.	8G/ 8c#	.	.	.	.	.	.	.	8Ree\	.	.	.	.	.	8c#/ 8e	.	8AA/ 8A	.	.	8g\	.	.
.	.	.	.	32cc#\LLyy	.	32ccc#\LL	.	.	.	.	.	.	.	.	.	.	.	.	.	32cc#/LL	.	32ccc#\LLyy	.
.	.	.	.	32b\JJJyy	.	32bb\JJJ	.	.	.	.	.	.	.	.	.	.	.	.	.	32b/JJJ	.	32bb\JJJyy	.
!	!	!	!	!	!	!	!	!	!	!LO:SIC:s=8ee\	!	!	!	!	!	!	!	!	!	!	!	!	!
4r	.	8G/ 8c#	.	8a/L)yy	.	8aa\L)	.	4r	.	8Ree\	.	4r	.	4r	.	8c#/ 8e	.	8AA/ 8A	.	8a/L)	8g\	8aa\L)yy	.
!	!	!	!	!	!	!	!	!	!	!LO:SIC:s=8ee\J	!	!	!	!	!	!	!	!	!	!	!	!	!
.	.	8G/J 8c#	.	8a'/Jyy	.	8aa'\J	.	.	.	8Ree\J	.	.	.	.	.	8c#/J 8e	.	8AA/J 8A	.	8a/J	8g\J	8aa'\Jyy	.
*	*	*	*	*	*	*	*	*	*	*Xrep	*	*Xrep	*	*	*	*	*	*	*	*	*	*	*
=19	=19	=19	=19	=19	=19	=19	=19	=19	=19	=19	=19	=19	=19	=19	=19	=19	=19	=19	=19	=19	=19	=19	=19
*	*	*	*	*	*	*	*	*	*	*	*	*	*	*	*	*	*	*	*	*Xtremolo	*tremolo	*	*
*	*	*rep	*	*	*	*rep	*	*rep	*	*rep	*	*rep	*	*rep	*	*rep	*	*rep	*	*rep	*rep	*rep	*
!	!	!	!	!	!	!	!	!LO:SIC:s=4C/	!	!LO:SIC:s=8ee\L	!	!	!	!	!	!	!	!	!	!	!	!	!
4AA/	.	8G/L 8c#	.	(8.ee\Lyy	.	(8.eee\L	.	4Ra/	.	8Ree\L	.	4AA/	.	4AA/	.	8c#/L 8e	.	8AA/L 8A	.	(8.ee/L	8g\L	(8.eee\Lyy	.
!	!	!	!	!	!	!	!	!	!	!LO:SIC:s=8ee\	!	!	!	!	!	!	!	!	!	!	!	!	!
.	.	8G/ 8c#	.	.	.	.	.	.	.	8Ree\	.	.	.	.	.	8c#/ 8e	.	8AA/ 8A	.	.	8g\	.	.
.	.	.	.	32cc#\LLyy	.	32ccc#\LL	.	.	.	.	.	.	.	.	.	.	.	.	.	32cc#/LL	.	32ccc#\LLyy	.
.	.	.	.	32b\JJJyy	.	32bb\JJJ	.	.	.	.	.	.	.	.	.	.	.	.	.	32b/JJJ	.	32bb\JJJyy	.
!	!	!	!	!	!	!	!	!	!	!LO:SIC:s=8ee\	!	!	!	!	!	!	!	!	!	!	!	!	!
4r	.	8G/ 8c#	.	8a/L)yy	.	8aa\L)	.	4r	.	8Ree\	.	4r	.	4r	.	8c#/ 8e	.	8AA/ 8A	.	8a/L)	8g\	8aa\L)yy	.
!	!	!	!	!	!	!	!	!	!	!LO:SIC:s=8ee\J	!	!	!	!	!	!	!	!	!	!	!	!	!
.	.	8G/J 8c#	.	8a'/Jyy	.	8aa'\J	.	.	.	8Ree\J	.	.	.	.	.	8c#/J 8e	.	8AA/J 8A	.	8a/J	8g\J	8aa'\Jyy	.
*	*	*Xrep	*	*	*	*Xrep	*	*Xrep	*	*Xrep	*	*Xrep	*	*Xrep	*	*Xrep	*	*Xrep	*	*Xrep	*Xrep	*Xrep	*
=20	=20	=20	=20	=20	=20	=20	=20	=20	=20	=20	=20	=20	=20	=20	=20	=20	=20	=20	=20	=20	=20	=20	=20
*	*	*	*	*	*	*	*	*rep	*	*rep	*	*rep	*	*	*	*	*	*	*	*	*	*	*
.	.	.	.	(8qff#/yy	.	(8qfff#/	.	.	.	.	.	.	.	.	.	.	.	.	.	(8qff#/	.	(8qfff#/yy	.
*	*	*rep	*	*	*	*	*	*	*	*	*	*	*	*rep	*	*rep	*	*rep	*	*	*rep	*	*
!	!	!	!	!	!	!	!	!LO:SIC:s=4C/	!	!LO:SIC:s=8ee\L	!	!	!	!	!	!	!	!	!	!	!	!	!
4AA/	.	8G/L 8c#	.	8ee\L)yy	.	8eee\L)	.	4Ra/	.	8Ree\L	.	4AA/	.	4AA/	.	8c#/L 8e	.	8AA/L 8A	.	8ee/L)	8g\L	8eee\L)yy	.
!	!	!	!	!	!	!	!	!	!	!LO:SIC:s=8ee\	!	!	!	!	!	!	!	!	!	!	!	!	!
.	.	8G/ 8c#	.	8dd#X'\yy	.	8ddd#X'\	.	.	.	8Ree\	.	.	.	.	.	8c#/ 8e	.	8AA/ 8A	.	8dd#X'>/	8g\	8ddd#X'\yy	.
!	!	!	!	!	!	!	!	!	!	!LO:SIC:s=8ee\	!	!	!	!	!	!	!	!	!	!	!	!	!
4r	.	8G/ 8c#	.	8ee'\yy	.	8eee'\	.	4r	.	8Ree\	.	4r	.	4r	.	8c#/ 8e	.	8AA/ 8A	.	8ee'>/	8g\	8eee'\yy	.
!	!	!	!	!	!	!	!	!	!	!LO:SIC:s=8ee\J	!	!	!	!	!	!	!	!	!	!	!	!	!
.	.	8G/J 8c#	.	8ff#'\Jyy	.	8fff#'\J	.	.	.	8Ree\J	.	.	.	.	.	8c#/J 8e	.	8AA/J 8A	.	8ff#'>/J	8g\J	8fff#'\Jyy	.
*	*	*Xrep	*	*	*	*	*	*Xrep	*	*Xrep	*	*Xrep	*	*Xrep	*	*Xrep	*	*Xrep	*	*	*Xrep	*	*
*	*	*	*	*	*	*	*	*	*	*	*	*	*	*	*	*	*	*	*	*	*Xtremolo	*	*
=21	=21	=21	=21	=21	=21	=21	=21	=21	=21	=21	=21	=21	=21	=21	=21	=21	=21	=21	=21	=21	=21	=21	=21
!	!	!	!	!	!	!	!	!LO:SIC:s=4C/	!	!LO:SIC:s=4ee\	!	!	!	!	!	!	!	!	!	!	!	!	!
4D\	.	4F#/ 4d	.	4dd\yy	.	4ddd\	.	4Ra/	.	4Ree\	.	4D/	.	4D/	.	4d/ 4f#	.	4D/ 4A	.	4ddn/	4f#\	4ddd\	.
!	!	!	!	!LO:TX:b:t=fine	!	!LO:TX:b:t=fine	!	!	!	!	!	!LO:TX:b:t=fine	!	!	!	!	!	!	!	!	!	!LO:TX:a:t=fine	!
4r	.	4r	.	4ryy	.	4r	.	4r	.	4r	.	4r	.	4r	.	4r	.	4r	.	4r	4ryy	4r	.
*	*	*	*	*	*	*	*	*	*	*	*	*	*	*	*	*	*	*	*	*v	*v	*	*
=22	=22	=22	=22	=22	=22	=22	=22	=22	=22	=22	=22	=22	=22	=22	=22	=22	=22	=22	=22	=22	=22	=22
*>C	*	*>C	*	*>C	*	*>C	*	*>C	*	*>C	*	*>C	*	*>C	*	*>C	*	*>C	*	*>C	*>C	*
*	*	*	*	*	*	*	*	*	*	*	*	*	*	*	*	*Xtremolo	*	*	*	*	*	*
!	!	!LO:TX:b:t=pizz	!	!	!	!LO:TX:b:t=pizz	!	!LO:TX:a:t=2.	!	!LO:TX:a:t=2.	!	!LO:TX:a:t=2.	!	!	!	!LO:TX:a:t=Col Clarinetti	!	!LO:TX:b:t=Col Clarine	!	!	!	!
4G\	.	4B\ 4d	.	4B/ 4g	.	4B/ 4g	.	2r	.	2r	.	2r	.	8G\	pp	8b'\Lyy 8ddyy	.	8r	p	8b'\L 8dd	8ddd'\L	.
.	.	.	.	.	.	.	.	.	.	.	.	.	.	8r	.	8g'\yy 8byy	.	8B/ 8d	.	8g'\ 8b	8bb'\	.
4G\	.	4B\ 4d	.	4B/ 4g	.	4B/ 4g	.	.	.	.	.	.	.	8G\	.	8b'\yy 8ddyy	.	8r	.	8b'\ 8dd	8ddd'\	.
.	.	.	.	.	.	.	.	.	.	.	.	.	.	8r	.	8g'\Jyy 8byy	.	8B/ 8d	.	8g'\J 8b	8bb'\J	.
=23	=23	=23	=23	=23	=23	=23	=23	=23	=23	=23	=23	=23	=23	=23	=23	=23	=23	=23	=23	=23	=23	=23
*rep	*	*rep	*	*rep	*	*rep	*	*	*	*	*	*	*	*rep	*	*	*	*rep	*	*rep	*rep	*
4G\	.	4B\ 4d	.	4B/ 4g	.	4B/ 4g	.	2r	.	2r	.	2r	.	8G\	.	8b'\Lyy 8ddyy	.	8r	.	8b'\L 8dd	8ddd'\L	.
.	.	.	.	.	.	.	.	.	.	.	.	.	.	8r	.	8g'\yy 8byy	.	8B/ 8d	.	8g'\ 8b	8bb'\	.
4G\	.	4B\ 4d	.	4B/ 4g	.	4B/ 4g	.	.	.	.	.	.	.	8G\	.	8b'\yy 8ddyy	.	8r	.	8b'\ 8dd	8ddd'\	.
.	.	.	.	.	.	.	.	.	.	.	.	.	.	8r	.	8g'\Jyy 8byy	.	8B/ 8d	.	8g'\J 8b	8bb'\J	.
*Xrep	*	*Xrep	*	*Xrep	*	*Xrep	*	*	*	*	*	*	*	*Xrep	*	*	*	*Xrep	*	*Xrep	*Xrep	*
=24	=24	=24	=24	=24	=24	=24	=24	=24	=24	=24	=24	=24	=24	=24	=24	=24	=24	=24	=24	=24	=24	=24
!	!	!	!	!	!	!	!	!LO:SIC:s=4C/	!	!LO:SIC:s=4ee\	!	!	!	!	!	!	!	!	!	!	!	!
4Cn/	.	4cn\ 4e	.	4cn/ 4e	.	4cn/ 4g	.	4Ra/	.	4Ree\	.	4D/	f	8Cn/	.	4.ee\yy 4.ggyy	.	8r	.	4.ee\ 4.gg	4.ggg\	.
.	.	.	.	.	.	.	.	.	.	.	.	.	.	8r	.	.	.	8cX\ 8e	.	.	.	.
4C/	.	4c\ 4e	.	4c/ 4e	.	4c/ 4g	.	4r	.	4r	.	4r	.	8C/	.	.	.	8r	.	.	.	.
.	.	.	.	.	.	.	.	.	.	.	.	.	.	8r	.	8ccn\yy 8eeyy	.	8c\ 8e	.	8ccn\ 8ee	8eee\	.
!!LO:LB:g=original
=25	=25	=25	=25	=25	=25	=25	=25	=25	=25	=25	=25	=25	=25	=25	=25	=25	=25	=25	=25	=25	=25	=25
!	!	!	!	!	!	!	!	!	!	!	!	!LO:TX:a:t=1.	!	!	!	!	!	!	!	!	!	!
4G\	.	4B/ 4d	.	4d/	.	4B/ 4g	.	2r	.	2r	.	2r	.	8G\	.	8b'\Lyy 8ddyy	.	8r	.	8b'\L 8dd	8ddd'\L	.
.	.	.	.	.	.	.	.	.	.	.	.	.	.	8r	.	8g'\yy 8byy	.	8B\ 8d	.	8g'\ 8b	8bb'\	.
4G\	.	4B/ 4d	.	4d/	.	4B/ 4g	.	.	.	.	.	.	.	8G\	.	8b'\yy 8ddyy	.	8r	.	8b'\ 8dd	8ddd'\	.
.	.	.	.	.	.	.	.	.	.	.	.	.	.	8r	.	8g'\Jyy 8byy	.	8B\ 8d	.	8g'\J 8b	8bb'\J	.
=26	=26	=26	=26	=26	=26	=26	=26	=26	=26	=26	=26	=26	=26	=26	=26	=26	=26	=26	=26	=26	=26	=26
*	*	*rep	*	*	*	*	*	*	*	*	*	*	*	*	*	*	*	*	*	*	*	*
!	!	!	!	!	!	!	!	!LO:SIC:s=4C/	!	!LO:SIC:s=4ee\	!	!	!	!	!	!	!	!	!	!	!	!
4E\	.	4B/ 4d	.	4d/ 4e	.	4B/ 4g#X	.	4Ra/	.	4Ree\	.	2r	.	8E\	.	4.g#X^\yy 4.eeyy	.	8r	.	4.g#X^<\ 4.ee	4.eee^<\	.
.	.	.	.	.	.	.	.	.	.	.	.	.	.	8r	.	.	.	8B\ 8e	.	.	.	.
4E\	.	4B/ 4d	.	4d/ 4e	.	4B/ 4g#	.	4r	.	4r	.	.	.	8E\	.	.	.	8r	.	.	.	.
.	.	.	.	.	.	.	.	.	.	.	.	.	.	8r	.	8b\yy 8ddyy	.	8B\ 8e	.	8b\ 8dd	8ddd\	.
*	*	*Xrep	*	*	*	*	*	*	*	*	*	*	*	*	*	*	*	*	*	*	*	*
=27	=27	=27	=27	=27	=27	=27	=27	=27	=27	=27	=27	=27	=27	=27	=27	=27	=27	=27	=27	=27	=27	=27
!	!	!	!	!	!	!	!	!	!	!LO:TX:a:t=5.	!	!LO:TX:a:t=5.	!	!	!	!	!	!	!	!	!	!
4A\	.	4A/ 4cn	.	4cn/ 4e	.	4cn/ 4a	.	2r	.	2r	.	2r	.	8A\	.	8a/Lyy 8ccnyy	.	8r	.	8a/L 8ccn	8cccn\L	.
.	.	.	.	.	.	.	.	.	.	.	.	.	.	8r	.	8e/yy 8ayy	.	8cX\ 8e	.	8e/ 8a	8aa\	.
4D\	.	4A/ 4c	.	4A/ 4f#	.	4c/ 4a	.	.	.	.	.	.	.	8D\	.	8f#/yy 8ddyy	.	8r	.	8f#/ 8dd	8ddd\	.
.	.	.	.	.	.	.	.	.	.	.	.	.	.	8r	.	8a/Jyy 8ccyy	.	8d\ 8f#	.	8a/J 8cc	8ccc\J	.
=28	=28	=28	=28	=28	=28	=28	=28	=28	=28	=28	=28	=28	=28	=28	=28	=28	=28	=28	=28	=28	=28	=28
4G\	.	4B\ 4d	.	4d/	.	4B/ 4g	.	2r	.	2r	.	2r	.	8G\	.	8g'/Lyy 8byy	.	8r	.	8g'/L 8b	8bb\L	.
.	.	.	.	.	.	.	.	.	.	.	.	.	.	8r	.	8b'/yy 8ddyy	.	8d\ 8g	.	8b'/ 8dd	8ddd\	.
4G\	.	4B\ 4d	.	4d/	.	4B/ 4g	.	.	.	.	.	.	.	8G\	.	8d'/yy 8f#yy	.	8r	.	8d'/ 8f#	8ff#\	.
.	.	.	.	.	.	.	.	.	.	.	.	.	.	8r	.	8e'/Jyy 8gyy	.	8G\ 8g	.	8e'/J 8g	8gg\J	.
=29	=29	=29	=29	=29	=29	=29	=29	=29	=29	=29	=29	=29	=29	=29	=29	=29	=29	=29	=29	=29	=29	=29
*	*	*	*	*rep	*	*	*	*	*	*	*	*	*	*	*	*	*	*	*	*	*	*
4D\	.	4A\ 4d	.	4d/	.	4A/ 4f#	.	2r	.	2r	.	2r	.	8D\	.	(4f#/yy 4ayy	.	8r	.	(>4f#/ 4a	(4aa\	.
.	.	.	.	.	.	.	.	.	.	.	.	.	.	8r	.	.	.	8A\ 8f#	.	.	.	.
4D\	.	4A\ 4d	.	4d/	.	4A/ 4f#	.	.	.	.	.	.	.	8D\	.	8d/)yy	.	8r	.	8d/)	8dd\)	.
.	.	.	.	.	.	.	.	.	.	.	.	.	.	8r	.	8ryy	.	8A\ 8f#	.	8r	8r	.
*	*	*	*	*Xrep	*	*	*	*	*	*	*	*	*	*	*	*	*	*	*	*	*	*
=30	=30	=30	=30	=30	=30	=30	=30	=30	=30	=30	=30	=30	=30	=30	=30	=30	=30	=30	=30	=30	=30	=30
*	*	*	*	*rep	*	*	*	*	*	*	*	*	*	*	*	*	*	*	*	*	*	*
4G\	.	4B\ 4d	.	4d/	.	4B/ 4g	.	2r	.	2r	.	2r	.	8G\	.	8b'\Lyy 8ddyy	.	8r	.	8b'/L 8dd	8ddd'\L	.
.	.	.	.	.	.	.	.	.	.	.	.	.	.	8r	.	8g'\yy 8byy	.	8B\ 8d	.	8g'/ 8b	8bb'\	.
4G\	.	4B\ 4d	.	4d/	.	4B/ 4g	.	.	.	.	.	.	.	8G\	.	8b'\yy 8ddyy	.	8r	.	8b'/ 8dd	8ddd'\	.
.	.	.	.	.	.	.	.	.	.	.	.	.	.	8r	.	8g'\Jyy 8byy	.	8B\ 8d	.	8g'/J 8b	8bb'\J	.
*	*	*	*	*Xrep	*	*	*	*	*	*	*	*	*	*	*	*	*	*	*	*	*	*
=31	=31	=31	=31	=31	=31	=31	=31	=31	=31	=31	=31	=31	=31	=31	=31	=31	=31	=31	=31	=31	=31	=31
*rep	*	*rep	*	*rep	*	*rep	*	*	*	*	*	*	*	*rep	*	*	*	*rep	*	*rep	*rep	*
4G\	.	4B\ 4d	.	4d/	.	4B/ 4g	.	2r	.	2r	.	2r	.	8G\	.	8b'\Lyy 8ddyy	.	8r	.	8b'/L 8dd	8ddd'\L	.
.	.	.	.	.	.	.	.	.	.	.	.	.	.	8r	.	8g'\yy 8byy	.	8B\ 8d	.	8g'/ 8b	8bb'\	.
4G\	.	4B\ 4d	.	4d/	.	4B/ 4g	.	.	.	.	.	.	.	8G\	.	8b'\yy 8ddyy	.	8r	.	8b'/ 8dd	8ddd'\	.
.	.	.	.	.	.	.	.	.	.	.	.	.	.	8r	.	8g'\Jyy 8byy	.	8B\ 8d	.	8g'/J 8b	8bb'\J	.
*Xrep	*	*Xrep	*	*Xrep	*	*Xrep	*	*	*	*	*	*	*	*Xrep	*	*	*	*Xrep	*	*Xrep	*Xrep	*
!	!	!	!	!	!	!	!	!LO:LB:g=original	!	!LO:LB:g=original	!	!LO:LB:g=original	!	!	!	!	!	!	!	!	!	!
!!LO:PB:g=original
=32	=32	=32	=32	=32	=32	=32	=32	=32	=32	=32	=32	=32	=32	=32	=32	=32	=32	=32	=32	=32	=32	=32
!	!	!	!	!	!	!	!	!LO:SIC:s=4C/	!	!LO:SIC:s=4ee\	!	!	!	!	!	!	!	!	!	!	!	!
4Cn/	.	4cn\ 4e	.	4cn/ 4e	.	4cn/ 4g	.	4Ra/	.	4Ree\	.	2r	.	8Cn/	.	4.ee\yy 4.ggyy	.	8r	.	4.ee\ 4.gg	4.ggg\	.
.	.	.	.	.	.	.	.	.	.	.	.	.	.	8r	.	.	.	8cX\ 8e	.	.	.	.
*	*	*	*	*	*	*	*	*	*	*	*	*	*	*	*	*	*	*rep	*	*	*	*
4C/	.	4c\ 4e	.	4c/ 4e	.	4c/ 4g	.	4r	.	4r	.	.	.	8C/	.	.	.	8r	.	.	.	.
.	.	.	.	.	.	.	.	.	.	.	.	.	.	8r	.	8ccn\yy 8eeyy	.	8c\ 8e	.	8ccn\ 8ee	8eee\	.
*	*	*	*	*	*	*	*	*	*	*	*	*	*	*	*	*	*	*Xrep	*	*	*	*
=33	=33	=33	=33	=33	=33	=33	=33	=33	=33	=33	=33	=33	=33	=33	=33	=33	=33	=33	=33	=33	=33	=33
4BB/	.	4d#X\ 4f#	.	4d#X/ 4f#	.	4d#X/ 4b	.	2r	.	2r	.	2r	.	8BB/	.	8dd#X'\Lyy 8ff#yy	.	8r	.	8dd#X'\L 8ff#	8fff#'\L	.
.	.	.	.	.	.	.	.	.	.	.	.	.	.	8r	.	8b'\yy	.	8d#X\ 8f#	.	8b'\	8bb'\	.
*	*	*	*	*	*	*	*	*	*	*	*	*	*	*	*	*	*	*rep	*	*	*	*
4BB/	.	4d#\ 4f#	.	4d#/ 4f#	.	4d#/ 4b	.	.	.	.	.	.	.	8BB/	.	8dd#'\yy 8ff#yy	.	8r	.	8dd#'\ 8ff#	8fff#'\	.
.	.	.	.	.	.	.	.	.	.	.	.	.	.	8r	.	8b'\Jyy	.	8d#\ 8f#	.	8b'\J	8bb'\J	.
*	*	*	*	*	*	*	*	*	*	*	*	*	*	*	*	*	*	*Xrep	*	*	*	*
=34	=34	=34	=34	=34	=34	=34	=34	=34	=34	=34	=34	=34	=34	=34	=34	=34	=34	=34	=34	=34	=34	=34
!	!	!	!	!	!	!	!	!LO:SIC:s=4C/	!	!LO:SIC:s=4ee\	!	!	!	!	!	!	!	!	!	!	!	!
4Cn/	.	4cn\ 4e	.	4e/	.	4cn/ 4a	.	4Ra/	.	4Ree\	.	2r	.	8Cn/	.	4.ddn\yy 4.ff#yy	.	8r	.	4.ddn\ 4.ff#	(4.fff#^<\	.
.	.	.	.	.	.	.	.	.	.	.	.	.	.	8r	.	.	.	8cX\ 8a	.	.	.	.
4C/	.	4c\ 4e	.	4e/	.	4c/ 4a	.	4r	.	4r	.	.	.	8C/	.	.	.	8r	.	.	.	.
.	.	.	.	.	.	.	.	.	.	.	.	.	.	8r	.	8ccn\yy 8eeyy	.	8c\ 8e	.	8ccn\ 8ee	8eee\)	.
=35	=35	=35	=35	=35	=35	=35	=35	=35	=35	=35	=35	=35	=35	=35	=35	=35	=35	=35	=35	=35	=35	=35
!	!	!	!	!	!	!	!	!LO:TX:a:t=5.	!	!	!	!LO:TX:a:t=5.	!	!	!	!	!	!	!	!	!	!
4D\	.	4B\ 4d	.	4d/	.	4B/ 4g	.	2r	.	2r	.	2r	.	8D\	.	8ccn\Lyy 8eeyy	.	8r	.	8ccn\L 8ee	8eee'\L	.
.	.	.	.	.	.	.	.	.	.	.	.	.	.	8r	.	8b\yy 8ddyy	.	8B\ 8d	.	8b\ 8dd	8ddd'\	.
4D\	.	4B\ 4d	.	4d/	.	4B/ 4g	.	.	.	.	.	.	.	8D\	.	8a\yy 8ccnyy	.	8r	.	8a\ 8ccn	8cccn'\	.
.	.	.	.	.	.	.	.	.	.	.	.	.	.	8r	.	8g\Jyy 8byy	.	8B\ 8d	.	8g\J 8b	8bb'\J	.
=36	=36	=36	=36	=36	=36	=36	=36	=36	=36	=36	=36	=36	=36	=36	=36	=36	=36	=36	=36	=36	=36	=36
*rep	*	*	*	*	*	*	*	*	*	*	*	*	*	*	*	*	*	*	*	*	*	*
4D\	.	4A\ 4d	.	4cn/ 4e	.	4A/ 4f#	.	2r	.	2r	.	2r	.	8D\	.	8b/Lyy 8ddyy	.	8r	.	8b\L 8dd	8ddd\L	.
.	.	.	.	.	.	.	.	.	.	.	.	.	.	8r	.	8a/yy 8ccnyy	.	8A\ 8d	.	8a\ 8ccn	8cccn\	.
4D\	.	4A\ 4d	.	4c/ 4e	.	4A/ 4f#	.	.	.	.	.	.	.	8D\	.	8f#/yy 8ayy	.	8r	.	8f#\ 8a	8aa\	.
.	.	.	.	.	.	.	.	.	.	.	.	.	.	8r	.	8d/Jyy 8byy	.	8A\ 8d	.	8d\J 8b	8bb\J	.
*Xrep	*	*	*	*	*	*	*	*	*	*	*	*	*	*	*	*	*	*	*	*	*	*
=37	=37	=37	=37	=37	=37	=37	=37	=37	=37	=37	=37	=37	=37	=37	=37	=37	=37	=37	=37	=37	=37	=37
*	*	*	*	*	*	*	*	*	*	*	*	*	*	*	*	*	*	*^	*	*	*	*
4G\	.	4G\ 4d	.	4B/ 4d	.	4B/ 4g	.	2r	.	2r	.	2r	.	4G\	.	4g/yy	.	4d/	4B\	.	4g/	4gg\	.
4r	.	4G\ 4d	.	4B/ 4d	.	4B/ 4g	.	.	.	.	.	.	.	4r	.	4ryy	.	4r	4ryy	.	4r	4r	.
*	*	*	*	*	*	*	*	*	*	*	*	*	*	*	*	*	*	*v	*v	*	*	*	*
!!LO:LB:g=original
=38	=38	=38	=38	=38	=38	=38	=38	=38	=38	=38	=38	=38	=38	=38	=38	=38	=38	=38	=38	=38	=38	=38
*	*	*Xtremolo	*	*	*	*	*	*	*	*	*	*	*	*	*	*	*	*	*	*	*	*
!	!	!	!	!LO:TX:a:t=Unis	!	!	!	!	!	!	!	!	!	!	!	!	!	!	!	!	!	!
!	!	!	!	!LO:TX:a:t=arco	!	!LO:TX:a:t=arco	!	!	!	!	!	!	!	!	!	!	!	!	!	!	!	!
8BB'/L	f	8B'/L	.	8b'/Lyy	f	8b'/L	f	2r	.	2r	.	2r	.	8B'\L	.	8b'/L	.	2r	.	2r	2r	.
8FF#'/	.	8F#'/	.	8f#'/yy	.	8f#'/	.	.	.	.	.	.	.	8F#'\	.	8f#'/	.	.	.	.	.	.
8BB'/	.	8B'/	.	8b'/yy	.	8b'/	.	.	.	.	.	.	.	8B'\	.	8b'/	.	.	.	.	.	.
8FF#'/J	.	8F#'/J	.	8f#'/Jyy	.	8f#'/J	.	.	.	.	.	.	.	8F#'\J	.	8f#'/J	.	.	.	.	.	.
=39	=39	=39	=39	=39	=39	=39	=39	=39	=39	=39	=39	=39	=39	=39	=39	=39	=39	=39	=39	=39	=39	=39
8BB'/L	.	8B'/L	.	8b'\Lyy	.	8b'\L	.	2r	.	2r	.	2r	.	8B'\L	.	8b\L	.	2r	.	2r	2r	.
8C#X'/	.	8c#X'/	.	8cc#X'\yy	.	8cc#X'\	.	.	.	.	.	.	.	8c#X'\	.	8cc#X\	.	.	.	.	.	.
8D'/J	.	8d'/J	.	8dd'\Jyy	.	8dd'\J	.	.	.	.	.	.	.	8d'\J	.	8dd\J	.	.	.	.	.	.
8r	.	8r	.	8ryy	.	8r	.	.	.	.	.	.	.	8r	.	8r	.	.	.	.	.	.
=40	=40	=40	=40	=40	=40	=40	=40	=40	=40	=40	=40	=40	=40	=40	=40	=40	=40	=40	=40	=40	=40	=40
*	*	*	*	*	*	*	*	*	*	*	*	*	*	*	*	*	*	*	*	*^	*	*
*	*	*	*	*	*	*	*	*	*	*	*	*	*	*2\right	*	*	*	*2\right	*	*	*	*	*
*	*	*	*	*	*	*	*	*	*	*	*	*	*	*tremolo	*	*	*	*tremolo	*	*	*tremolo	*	*
!	!	!	!	!	!	!	!	!	!	!LO:SIC:s=8ee\L	!	!	!	!	!	!	!	!LO:TX:t=P:problem=łuk i kropki nad tremolo	!	!	!	!	!
2r	.	2r	.	2ryy	.	2r	.	2r	.	8Ree\L	p	2r	.	8F#\L	p	2r	.	8c#'\L 8e	p	8ff#/L	8a#X\L	8fff#\L	p
!	!	!	!	!	!	!	!	!	!	!LO:SIC:s=8ee\	!	!	!	!	!	!	!	!	!	!	!	!	!
.	.	.	.	.	.	.	.	.	.	8Ree\	.	.	.	8F#\	.	.	.	8c#'\ 8e	.	8gg/	8a#\	8ggg\	.
!	!	!	!	!	!	!	!	!	!	!LO:SIC:s=8ee\	!	!	!	!	!	!	!	!	!	!	!	!	!
.	.	.	.	.	.	.	.	.	.	8Ree\	.	.	.	8F#\	.	.	.	8c#'\ 8e	.	8ff#/	8a#\	8fff#\	.
!	!	!	!	!	!	!	!	!	!	!LO:SIC:s=8ee\J	!	!	!	!	!	!	!	!	!	!	!	!	!
.	.	.	.	.	.	.	.	.	.	8Ree\J	.	.	.	8F#\J	.	.	.	8c#'\J 8e	.	8ee/J	8a#\J	8eee\J	.
*	*	*	*	*	*	*	*	*	*	*	*	*	*	*Xtremolo	*	*	*	*Xtremolo	*	*	*Xtremolo	*	*
=41	=41	=41	=41	=41	=41	=41	=41	=41	=41	=41	=41	=41	=41	=41	=41	=41	=41	=41	=41	=41	=41	=41	=41
!	!	!	!	!	!	!	!	!	!	!LO:SIC:s=8ee\L	!	!	!	!	!	!	!	!	!	!	!	!	!
2r	.	2r	.	2ryy	.	2r	.	2r	.	8Ree\L	.	2r	.	8B\L	.	2r	.	8d\L	.	8dd/L	8b\L	8ddd\L	.
!	!	!	!	!	!	!	!	!	!	!LO:SIC:s=8ee\	!	!	!	!	!	!	!	!	!	!	!	!	!
.	.	.	.	.	.	.	.	.	.	8Ree\	.	.	.	8F#\	.	.	.	8e\	.	8cc#X/	8a#X\	8ccc#X\	.
!	!	!	!	!	!	!	!	!	!	!LO:SIC:s=8ee\J	!	!	!	!	!	!	!	!	!	!	!	!	!
.	.	.	.	.	.	.	.	.	.	8Ree\J	.	.	.	8B\J	.	.	.	8d\J	.	8b/J	8b\J	8bb\J	.
.	.	.	.	.	.	.	.	.	.	8r	.	.	.	8r	.	.	.	8r	.	8r	8ryy	8r	.
*	*	*	*	*	*	*	*	*	*	*	*	*	*	*	*	*	*	*	*	*v	*v	*	*
=42	=42	=42	=42	=42	=42	=42	=42	=42	=42	=42	=42	=42	=42	=42	=42	=42	=42	=42	=42	=42	=42	=42
!	!	!	!	!	!	!	!	!LO:TX:a:t=2.	!	!LO:TX:a:t=2	!	!	!	!	!	!	!	!	!	!	!	!
8D/L	ff	8d'/L	.	8d'/Lyy	ff	8d'/L	ff	2r	.	2r	.	8D/L	f	8D/L	ff	8d/L	.	2r	.	2r	2r	.
8AA/	.	8A'/	.	8A'/yy	.	8A'/	.	.	.	.	.	8AA/	.	8AA/	.	8A/	.	.	.	.	.	.
8D/	.	8d'/	.	8d'/yy	.	8d'/	.	.	.	.	.	8D/	.	8D/	.	8d/	.	.	.	.	.	.
8AA/J	.	8A'/J	.	8A'/Jyy	.	8A'/J	.	.	.	.	.	8AA/J	.	8AA/J	.	8A/J	.	.	.	.	.	.
=43	=43	=43	=43	=43	=43	=43	=43	=43	=43	=43	=43	=43	=43	=43	=43	=43	=43	=43	=43	=43	=43	=43
8D'\L	.	8d'\L	.	8d'/Lyy	.	8d'/L	.	2r	.	2r	.	8D/L	.	8D\L	.	8d/L	.	2r	.	2r	2r	.
8E'\	.	8e'\	.	8e'/yy	.	8e'/	.	.	.	.	.	8AA/J	.	8E\	.	8e/	.	.	.	.	.	.
8F#'\J	.	8f#'\J	.	8f#'/Jyy	.	8f#'/J	.	.	.	.	.	8D/	.	8F#\J	.	8f#/J	.	.	.	.	.	.
8r	.	8r	.	8ryy	.	8r	.	.	.	.	.	8r	.	8r	.	8r	.	.	.	.	.	.
=44	=44	=44	=44	=44	=44	=44	=44	=44	=44	=44	=44	=44	=44	=44	=44	=44	=44	=44	=44	=44	=44	=44
*	*	*	*	*	*	*	*	*	*	*	*	*	*	*	*	*	*	*	*	*^	*	*
*	*	*	*	*	*	*	*	*	*	*	*	*	*	*tremolo	*	*	*	*tremolo	*	*	*tremolo	*	*
!	!	!	!	!	!	!	!	!	!	!LO:SIC:s=8ee\L	!	!	!	!	!	!	!	!LO:TX:t=P:problem=łuk i kropki nad tremolo	!	!	!	!	!
2r	.	2r	.	2ryy	.	2r	.	2r	.	8Ree\L	p	2r	.	8A'\L	p	2ryy	.	8e'\L 8g	.	8aa/L	8cc#X\L	8aa'\L	p
!	!	!	!	!	!	!	!	!	!	!LO:SIC:s=8ee\	!	!	!	!	!	!	!	!	!	!	!	!	!
.	.	.	.	.	.	.	.	.	.	8Ree\	.	.	.	8A'\	.	.	.	8e'\ 8g	.	8bb/	8cc#\	8bb'\	.
!	!	!	!	!	!	!	!	!	!	!LO:SIC:s=8ee\	!	!	!	!	!	!	!	!	!	!	!	!	!
.	.	.	.	.	.	.	.	.	.	8Ree\	.	.	.	8A'\	.	.	.	8e'\ 8g	.	8aa/	8cc#\	8aa'\	.
!	!	!	!	!	!	!	!	!	!	!LO:SIC:s=8ee\J	!	!	!	!	!	!	!	!	!	!	!	!	!
.	.	.	.	.	.	.	.	.	.	8Ree\J	.	.	.	8A'\J	.	.	.	8e'\J 8g	.	8gg/J	8cc#\J	8gg'\J	.
*	*	*	*	*	*	*	*	*	*	*	*	*	*	*Xtremolo	*	*	*	*Xtremolo	*	*	*Xtremolo	*	*
!!LO:PB:g=original
=45	=45	=45	=45	=45	=45	=45	=45	=45	=45	=45	=45	=45	=45	=45	=45	=45	=45	=45	=45	=45	=45	=45	=45
!	!	!	!	!	!	!	!	!	!	!LO:SIC:s=8ee\L	!	!	!	!	!	!	!	!	!	!	!	!	!
2r	.	2r	.	2ryy	.	2r	.	2r	.	8Ree\L	.	2r	.	8D/L	.	2r	.	8d\L 8f#	.	8ff#/L	8dd\L	8ff#'\L	.
!	!	!	!	!	!	!	!	!	!	!LO:SIC:s=8ee\	!	!	!	!	!	!	!	!	!	!	!	!	!
.	.	.	.	.	.	.	.	.	.	8Ree\	.	.	.	8AA/	.	.	.	8A\ 8e	.	8ee/	8cc#\	8ee'\	.
!	!	!	!	!	!	!	!	!	!	!LO:SIC:s=8ee\J	!	!	!	!	!	!	!	!	!	!	!	!	!
.	.	.	.	.	.	.	.	.	.	8Ree\J	.	.	.	8D/J	.	.	.	8d\J 8f#	.	8dd/J	8dd\J	8dd'\J	.
.	.	.	.	.	.	.	.	.	.	8r	.	.	.	8r	.	.	.	8r	.	8r	8ryy	8r	.
*	*	*	*	*	*	*	*	*	*	*	*	*	*	*	*	*	*	*	*	*v	*v	*	*
=46	=46	=46	=46	=46	=46	=46	=46	=46	=46	=46	=46	=46	=46	=46	=46	=46	=46	=46	=46	=46	=46	=46
!	!	!	!	!	!	!	!	!LO:TX:a:t=2.	!	!LO:TX:a:t=2.	!	!LO:TX:a:t=2.	!	!	!	!	!	!	!	!	!	!
8F#\L	.	8F#'/L	ff	8f#'/Lyy	ff	8f#'/L	ff	2r	.	2r	.	2r	.	8F#'\L	ff	8f#'/L	ff	2r	.	2r	2r	.
8C#\	.	8C#'/	.	8c#'/yy	.	8c#'/	.	.	.	.	.	.	.	8C#'\	.	8c#'/	.	.	.	.	.	.
8F#\	.	8F#'/	.	8f#'/yy	.	8f#'/	.	.	.	.	.	.	.	8F#'\	.	8f#'/	.	.	.	.	.	.
8C#\J	.	8C#'/J	.	8c#'/Jyy	.	8c#'/J	.	.	.	.	.	.	.	8C#'\J	.	8c#'/J	.	.	.	.	.	.
=47	=47	=47	=47	=47	=47	=47	=47	=47	=47	=47	=47	=47	=47	=47	=47	=47	=47	=47	=47	=47	=47	=47
8F#\L	.	8F#'/L	.	8f#'/Lyy	.	8f#'/L	.	2r	.	2r	.	2r	.	8F#'\L	.	8f#'/L	.	2r	.	2r	2r	.
8G#X\	.	8G#X'/	.	8g#X'/yy	.	8g#X'/	.	.	.	.	.	.	.	8G#X'\	.	8g#X'/	.	.	.	.	.	.
8A\J	.	8A'/J	.	8a'/Jyy	.	8a'/J	.	.	.	.	.	.	.	8A'\J	.	8a'/J	.	.	.	.	.	.
8r	.	8r	.	8ryy	.	8r	.	.	.	.	.	.	.	8r	.	8r	.	.	.	.	.	.
=48	=48	=48	=48	=48	=48	=48	=48	=48	=48	=48	=48	=48	=48	=48	=48	=48	=48	=48	=48	=48	=48	=48
*	*	*	*	*	*	*	*	*	*	*	*	*	*	*	*	*	*	*	*	*^	*	*
*	*	*	*	*	*	*	*	*	*	*	*	*	*	*tremolo	*	*	*	*tremolo	*	*tremolo	*	*	*
!	!	!	!	!	!	!	!	!	!	!LO:SIC:s=8ee\L	!	!	!	!	!LO:DY:a	!	!	!	!	!	!	!	!
2r	.	2r	.	2ryy	.	2r	.	2r	.	8Ree\L	p	2r	.	8C#X'/L	p	2r	.	8e#X\L 8g#X	.	8ee#X/L	8cc#X\L	8ccc#X'\L	p
!	!	!	!	!	!	!	!	!	!	!LO:SIC:s=8ee\	!	!	!	!	!	!	!	!	!	!	!	!	!
.	.	.	.	.	.	.	.	.	.	8Ree\	.	.	.	8C#X'/	.	.	.	8e#\ 8g#	.	8ee#/	8dd\	8ddd'\	.
!	!	!	!	!	!	!	!	!	!	!LO:SIC:s=8ee\	!	!	!	!	!	!	!	!	!	!	!	!	!
.	.	.	.	.	.	.	.	.	.	8Ree\	.	.	.	8C#X'/	.	.	.	8e#\ 8g#	.	8ee#/	8cc#\	8ccc#'\	.
!	!	!	!	!	!	!	!	!	!	!LO:SIC:s=8ee\J	!	!	!	!	!	!	!	!	!	!	!	!	!
.	.	.	.	.	.	.	.	.	.	8Ree\J	.	.	.	8C#X'/J	.	.	.	8e#\J 8g#	.	8ee#/J	8b\J	8bb'\J	.
*	*	*	*	*	*	*	*	*	*	*	*	*	*	*Xtremolo	*	*	*	*Xtremolo	*	*Xtremolo	*	*	*
=49	=49	=49	=49	=49	=49	=49	=49	=49	=49	=49	=49	=49	=49	=49	=49	=49	=49	=49	=49	=49	=49	=49	=49
!	!	!	!	!	!	!	!	!	!	!LO:SIC:s=8ee\L	!	!	!	!	!	!	!	!	!	!	!	!	!
2r	.	2r	.	2ryy	.	2r	.	2r	.	8Ree\L	.	2r	.	8F#\L	.	2r	.	8f#\L 8a	.	8ff#/L	8a\L	8aa'\L	.
!	!	!	!	!	!	!	!	!	!	!LO:SIC:s=8ee\	!	!	!	!	!	!	!	!	!	!	!	!	!
.	.	.	.	.	.	.	.	.	.	8Ree\	.	.	.	8C#\	.	.	.	8e#X\ 8b	.	8ee#X/	8g#X\	8gg#X'\	.
!	!	!	!	!	!	!	!	!	!	!LO:SIC:s=8ee\J	!	!	!	!	!	!	!	!	!	!	!	!	!
.	.	.	.	.	.	.	.	.	.	8Ree\J	.	.	.	8F#\J	.	.	.	8f#\J 8a	.	8ff#/J	8f#\J	8ff#'\J	.
.	.	.	.	.	.	.	.	.	.	8r	.	.	.	8r	.	.	.	8r	.	8r	8ryy	8r	.
*	*	*	*	*	*	*	*	*	*	*	*	*	*	*	*	*	*	*	*	*v	*v	*	*
!	!	!	!	!	!	!	!	!LO:LB:g=original	!	!LO:LB:g=original	!	!LO:LB:g=original	!	!	!	!	!	!	!	!	!	!
=50	=50	=50	=50	=50	=50	=50	=50	=50	=50	=50	=50	=50	=50	=50	=50	=50	=50	=50	=50	=50	=50	=50
!	!	!	!	!	!	!	!	!LO:TX:a:t=6.	!	!LO:TX:a:t=6.	!	!LO:TX:a:t=6.	!	!	!	!	!	!	!	!	!	!
8F#\L	.	8F#'/L	ff	8f#'/Lyy	ff	8f#'/L	ff	2r	.	2r	.	2r	.	8F#'\L	ff	8f#'/L	ff	2r	.	2r	2r	.
8G#X\	.	8G#X'/	.	8g#X'/yy	.	8g#X'/	.	.	.	.	.	.	.	8G#X'\	.	8g#X'/	.	.	.	.	.	.
8A\	.	8A'/	.	8a'/yy	.	8a'/	.	.	.	.	.	.	.	8A'\	.	8a'/	.	.	.	.	.	.
8B\J	.	8B'/J	.	8b'/Jyy	.	8b'/J	.	.	.	.	.	.	.	8B'\J	.	8b'/J	.	.	.	.	.	.
=51	=51	=51	=51	=51	=51	=51	=51	=51	=51	=51	=51	=51	=51	=51	=51	=51	=51	=51	=51	=51	=51	=51
8B#X\L	.	8B#X/L	.	8b#X'\Lyy	.	8b#X'\L	.	2r	.	2r	.	2r	.	8B#X'\L	.	8b#X'\L	.	2r	.	2r	2r	.
8c#\	.	8c#/	.	8cc#X'\yy	.	8cc#X'\	.	.	.	.	.	.	.	8c#X'\	.	8cc#X'\	.	.	.	.	.	.
8d\J	.	8d/J	.	8dd'\Jyy	.	8dd'\J	.	.	.	.	.	.	.	8d'\J	.	8dd'\J	.	.	.	.	.	.
8r	.	8r	.	8ryy	.	8r	.	.	.	.	.	.	.	8r	.	8r	.	.	.	.	.	.
!!LO:LB:g=original
=52	=52	=52	=52	=52	=52	=52	=52	=52	=52	=52	=52	=52	=52	=52	=52	=52	=52	=52	=52	=52	=52	=52
2r	.	2r	.	2r	.	2r	.	2r	.	2r	.	2r	.	2r	.	2r	.	2r	.	8d'/L 8f#	8ff#'\L	.
.	.	.	.	.	.	.	.	.	.	.	.	.	.	.	.	.	.	.	.	8e'/ 8gn	8ggn'\	.
.	.	.	.	.	.	.	.	.	.	.	.	.	.	.	.	.	.	.	.	8f#'/ 8a	8aa'\	.
.	.	.	.	.	.	.	.	.	.	.	.	.	.	.	.	.	.	.	.	8g'/J 8b	8bb'\J	.
=53	=53	=53	=53	=53	=53	=53	=53	=53	=53	=53	=53	=53	=53	=53	=53	=53	=53	=53	=53	=53	=53	=53
2r	.	2r	.	2r	.	2r	.	2r	.	2r	.	2r	.	2r	.	2r	.	2r	.	8a'>/L 8ccn	8cccn'\L	.
.	.	.	.	.	.	.	.	.	.	.	.	.	.	.	.	.	.	.	.	8g'>/ 8cc#X	8ccc#X'\	.
.	.	.	.	.	.	.	.	.	.	.	.	.	.	.	.	.	.	.	.	8f#'>/J 8dd	8ddd'\J	.
.	.	.	.	.	.	.	.	.	.	.	.	.	.	.	.	.	.	.	.	8r	8r	p
=54	=54	=54	=54	=54	=54	=54	=54	=54	=54	=54	=54	=54	=54	=54	=54	=54	=54	=54	=54	=54	=54	=54
*	*	*2\right	*	*	*	*	*	*	*	*	*	*	*	*	*	*	*	*	*	*	*	*
!LO:TX:b:t=pizz	!	!	!	!	!	!	!	!	!	!	!	!	!	!	!	!LO:TX:a:t=col clarinetti	!	!	!	!	!	!
4G\	.	[2d\	pp	[2B/	.	[2g/	pp	2r	.	2r	.	2r	.	8G\	p	8b'\Lyy 8ddyy	.	8r	p	8b'\L 8dd	8ddd'\L	.
.	.	.	.	.	.	.	.	.	.	.	.	.	.	8r	.	8g'\yy 8byy	.	8B\ 8d	.	8g'\ 8b	8bb'\	.
4r	.	.	.	.	.	.	.	.	.	.	.	.	.	8G\	.	8b'\yy 8ddyy	.	8r	.	8b'\ 8dd	8ddd'\	.
.	.	.	.	.	.	.	.	.	.	.	.	.	.	8r	.	8g'\Jyy 8byy	.	8B\ 8d	.	8g'\J 8b	8bb'\J	.
=55	=55	=55	=55	=55	=55	=55	=55	=55	=55	=55	=55	=55	=55	=55	=55	=55	=55	=55	=55	=55	=55	=55
*	*	*	*	*	*	*	*	*	*	*	*	*	*	*rep	*	*	*	*rep	*	*rep	*rep	*
4G\	.	(2d\]	.	(2B/]	.	2g/_	.	2r	.	2r	.	2r	.	8G\	.	8b'\Lyy 8ddyy	.	8r	.	8b'\L 8dd	8ddd'\L	.
.	.	.	.	.	.	.	.	.	.	.	.	.	.	8r	.	8g'\yy 8byy	.	8B\ 8d	.	8g'\ 8b	8bb'\	.
4r	.	.	.	.	.	.	.	.	.	.	.	.	.	8G\	.	8b'\yy 8ddyy	.	8r	.	8b'\ 8dd	8ddd'\	.
.	.	.	.	.	.	.	.	.	.	.	.	.	.	8r	.	8g'\Jyy 8byy	.	8B\ 8d	.	8g'\J 8b	8bb'\J	.
*	*	*	*	*	*	*	*	*	*	*	*	*	*	*Xrep	*	*	*	*Xrep	*	*Xrep	*Xrep	*
=56	=56	=56	=56	=56	=56	=56	=56	=56	=56	=56	=56	=56	=56	=56	=56	=56	=56	=56	=56	=56	=56	=56
!	!	!	!	!	!	!	!	!LO:SIC:s=4C/	!LO:DY:a	!LO:SIC:s=4ee\	!	!	!	!	!	!	!	!	!	!	!	!
4Cn/	.	(2e\)	.	2cn/)	.	2g/_	.	4Ra/	f	4Ree\	.	2r	.	8Cn/	.	4.ee'\yy 4.ggyy	.	8r	.	4.ee'\ 4.gg	4.ggg\	.
.	.	.	.	.	.	.	.	.	.	.	.	.	.	8r	.	.	.	8cX\ 8e	.	.	.	.
4r	.	.	.	.	.	.	.	4r	.	4r	.	.	.	8C/	.	.	.	8r	.	.	.	.
.	.	.	.	.	.	.	.	.	.	.	.	.	.	8r	.	8ccn'\yy 8eeyy	.	8c\ 8e	.	8ccn'\ 8ee	8eee\	.
=57	=57	=57	=57	=57	=57	=57	=57	=57	=57	=57	=57	=57	=57	=57	=57	=57	=57	=57	=57	=57	=57	=57
4G\	.	2d\)	.	[2B/	.	(2g/]	.	2r	.	2r	.	2r	.	8G\	.	8b'\Lyy 8ddyy	.	8r	.	8b'\L 8dd	8ddd\L	.
.	.	.	.	.	.	.	.	.	.	.	.	.	.	8r	.	8g'\yy 8byy	.	8B\ 8d	.	8g'\ 8b	8bb\	.
4r	.	.	.	.	.	.	.	.	.	.	.	.	.	8G\	.	8b'\yy 8ddyy	.	8r	.	8b'\ 8dd	8ddd\	.
.	.	.	.	.	.	.	.	.	.	.	.	.	.	8r	.	8g'\Jyy 8byy	.	8B\ 8d	.	8g'\J 8b	8bb\J	.
=58	=58	=58	=58	=58	=58	=58	=58	=58	=58	=58	=58	=58	=58	=58	=58	=58	=58	=58	=58	=58	=58	=58
!	!	!	!	!	!	!	!	!LO:SIC:s=4C/	!	!LO:SIC:s=4ee\	!	!	!	!	!	!	!	!	!	!	!	!
4E\	.	(2d\	.	(2B/]	.	(2g#X/)	.	4Ra/	.	4Ree\	.	2r	.	8E\	.	4.g#X^\yy 4.eeyy	.	8r	.	4.g#X^\ 4.ee	4.eee\	.
.	.	.	.	.	.	.	.	.	.	.	.	.	.	8r	.	.	.	8B\ 8e	.	.	.	.
4r	.	.	.	.	.	.	.	4r	.	4r	.	.	.	8E\	.	.	.	8r	.	.	.	.
.	.	.	.	.	.	.	.	.	.	.	.	.	.	8r	.	8b\yy 8ddyy	.	8B\ 8e	.	8b\ 8dd	8ddd\	.
=59	=59	=59	=59	=59	=59	=59	=59	=59	=59	=59	=59	=59	=59	=59	=59	=59	=59	=59	=59	=59	=59	=59
!	!	!	!	!	!	!	!	!LO:TX:a:t=5.	!	!LO:TX:a:t=5.	!	!LO:TX:a:t=5.	!	!	!	!	!	!	!	!	!	!
4A\	.	4e\	.	(2cn/)	.	(2a/)	.	2r	.	2r	.	2r	.	8A\	.	8a'\Lyy 8ccnyy	.	8r	.	8a'\L 8ccn	8cccn\L	.
.	.	.	.	.	.	.	.	.	.	.	.	.	.	8r	.	8e'\yy 8ayy	.	8cX\ 8e	.	8e'\ 8a	8aa\	.
4D\	.	4d\	.	.	.	.	.	.	.	.	.	.	.	8D\	.	8f#'\yy 8ddyy	.	8r	.	8f#'\ 8dd	8ddd\	.
.	.	.	.	.	.	.	.	.	.	.	.	.	.	8r	.	8a'\Jyy 8ccyy	.	8d\ 8f#	.	8a'\J 8cc	8ccc\J	.
!!LO:PB:g=original
=60	=60	=60	=60	=60	=60	=60	=60	=60	=60	=60	=60	=60	=60	=60	=60	=60	=60	=60	=60	=60	=60	=60
!	!	!LO:TX:t=P:problem=brak zakończenia łuku	!	!LO:TX:t=P:problem=brak zakończenia łuku	!	!LO:TX:t=P:problem=brak zakończenia łuku	!	!	!	!	!	!	!	!	!	!	!	!	!	!	!	!
4G\	.	[2d\)	.	(>2B/)	.	(>2g/)	.	2r	.	2r	.	2r	.	8G\	.	8g'/Lyy 8byy	.	8r	.	8g'/L 8b	8bb'\L	.
.	.	.	.	.	.	.	.	.	.	.	.	.	.	8r	.	8b'/yy 8ddyy	.	8d\ 8g	.	8b'/ 8dd	8ddd'\	.
4r	.	.	.	.	.	.	.	.	.	.	.	.	.	8G\	.	8d'/yy 8f#yy	.	8r	.	8d'/ 8f#	8ff#'\	.
.	.	.	.	.	.	.	.	.	.	.	.	.	.	8r	.	8e'/Jyy 8gyy	.	8G\ 8g	.	8e'/J 8g	8gg'\J	.
=61	=61	=61	=61	=61	=61	=61	=61	=61	=61	=61	=61	=61	=61	=61	=61	=61	=61	=61	=61	=61	=61	=61
4D\	.	2d\_	.	(>2A/)	.	(2f#/)	.	2r	.	2r	.	2r	.	8D\	.	4f#/yy 4ayy	.	8r	.	(4f#/ 4a	(4aa\	.
.	.	.	.	.	.	.	.	.	.	.	.	.	.	8r	.	.	.	8A\ 8e	.	.	.	.
4r	.	.	.	.	.	.	.	.	.	.	.	.	.	8D\	.	8d/yy	.	8r	.	8d/)	8dd\)	.
.	.	.	.	.	.	.	.	.	.	.	.	.	.	8r	.	8ryy	.	8A\ 8f#	.	8r	8r	.
=62	=62	=62	=62	=62	=62	=62	=62	=62	=62	=62	=62	=62	=62	=62	=62	=62	=62	=62	=62	=62	=62	=62
4G\	.	2d\_	.	[>2B/)	.	[2g/)	.	2r	.	2r	.	2r	.	8G\	.	8b'\Lyy 8ddyy	.	8r	.	8b'\L 8dd	8ddd'\L	.
.	.	.	.	.	.	.	.	.	.	.	.	.	.	8r	.	8g'\yy 8byy	.	8B\ 8d	.	8g'\ 8b	8bb'\	.
*	*	*	*	*	*	*	*	*	*	*	*	*	*	*	*	*	*	*rep	*	*	*	*
4r	.	.	.	.	.	.	.	.	.	.	.	.	.	8G\	.	8b'\yy 8ddyy	.	8r	.	8b'\ 8dd	8ddd'\	.
.	.	.	.	.	.	.	.	.	.	.	.	.	.	8r	.	8g'\Jyy 8byy	.	8B\ 8d	.	8g'\J 8b	8bb'\J	.
*	*	*	*	*	*	*	*	*	*	*	*	*	*	*	*	*	*	*Xrep	*	*	*	*
=63	=63	=63	=63	=63	=63	=63	=63	=63	=63	=63	=63	=63	=63	=63	=63	=63	=63	=63	=63	=63	=63	=63
*	*	*	*	*	*	*	*	*	*	*	*	*	*	*rep	*	*	*	*rep	*	*rep	*rep	*
4G\	.	(2d\]	.	(>2B/]	.	2g/_	.	2r	.	2r	.	2r	.	8G\	.	8b'\Lyy 8ddyy	.	8r	.	8b'\L 8dd	8ddd'\L	.
.	.	.	.	.	.	.	.	.	.	.	.	.	.	8r	.	8g'\yy 8byy	.	8B\ 8d	.	8g'\ 8b	8bb'\	.
4r	.	.	.	.	.	.	.	.	.	.	.	.	.	8G\	.	8b'\yy 8ddyy	.	8r	.	8b'\ 8dd	8ddd'\	.
.	.	.	.	.	.	.	.	.	.	.	.	.	.	8r	.	8g'\Jyy 8byy	.	8B\ 8d	.	8g'\J 8b	8bb'\J	.
*	*	*	*	*	*	*	*	*	*	*	*	*	*	*Xrep	*	*	*	*Xrep	*	*Xrep	*Xrep	*
=64	=64	=64	=64	=64	=64	=64	=64	=64	=64	=64	=64	=64	=64	=64	=64	=64	=64	=64	=64	=64	=64	=64
!	!	!	!	!	!	!	!	!LO:SIC:s=4C/	!	!LO:SIC:s=4ee\	!	!	!	!	!	!	!	!	!	!	!	!
4Cn/	.	(2e\)	.	2cn/)	.	2g/]	.	4Ra/	.	4Ree\	.	2r	.	8Cn/	.	4.ee\yy 4.ggyy	.	8r	.	4.ee\ 4.gg	4.ggg\	.
.	.	.	.	.	.	.	.	.	.	.	.	.	.	8r	.	.	.	8cX\ 8e	.	.	.	.
*	*	*	*	*	*	*	*	*	*	*	*	*	*	*	*	*	*	*rep	*	*	*	*
4r	.	.	.	.	.	.	.	4r	.	4r	.	.	.	8C/	.	.	.	8r	.	.	.	.
.	.	.	.	.	.	.	.	.	.	.	.	.	.	8r	.	8ccn\yy 8eeyy	.	8c\ 8e	.	8ccn\ 8ee	8eee\	.
*	*	*	*	*	*	*	*	*	*	*	*	*	*	*	*	*	*	*Xrep	*	*	*	*
=65	=65	=65	=65	=65	=65	=65	=65	=65	=65	=65	=65	=65	=65	=65	=65	=65	=65	=65	=65	=65	=65	=65
!	!	!	!	!	!	!	!	!	!	!LO:TX:a:t=1.	!	!	!	!	!	!	!	!	!	!	!	!
4BB/	.	(2f#\)	.	(2d#X/	.	(2b\	.	2r	.	2r	.	2r	.	8BB/	.	8dd#X\Lyy 8ff#yy	.	8r	.	8dd#X\L 8ff#	8fff#'\L	.
.	.	.	.	.	.	.	.	.	.	.	.	.	.	8r	.	8b\yy	.	8d#X\ 8f#	.	8b\	8bb'\	.
4r	.	.	.	.	.	.	.	.	.	.	.	.	.	8BB/	.	8dd#\yy 8ff#yy	.	8r	.	8dd#\ 8ff#	8fff#'\	.
.	.	.	.	.	.	.	.	.	.	.	.	.	.	8r	.	8b\Jyy	.	8d#\ 8f#	.	8b\J	8bb'\J	.
=66	=66	=66	=66	=66	=66	=66	=66	=66	=66	=66	=66	=66	=66	=66	=66	=66	=66	=66	=66	=66	=66	=66
!	!	!	!	!	!	!	!	!LO:SIC:s=4C/	!	!LO:SIC:s=4ee\	!	!	!	!	!	!	!	!	!	!	!	!
4Cn/	.	(2e\)	.	(2cn/)	.	(>2a/)	.	4Ra/	.	4Ree\	.	2r	.	8Cn/	.	4.ddn\yy 4.ff#yy	.	8r	.	4.ddn\ 4.ff#	4.fff#\	.
.	.	.	.	.	.	.	.	.	.	.	.	.	.	8r	.	.	.	8cX\ 8a	.	.	.	.
4r	.	.	.	.	.	.	.	4r	.	4r	.	.	.	8C/	.	.	.	8r	.	.	.	.
.	.	.	.	.	.	.	.	.	.	.	.	.	.	8r	.	8ccn\yy 8eeyy	.	8c\ 8e	.	8ccn\ 8ee	8eee\	.
=67	=67	=67	=67	=67	=67	=67	=67	=67	=67	=67	=67	=67	=67	=67	=67	=67	=67	=67	=67	=67	=67	=67
!	!	!	!	!	!	!	!	!LO:TX:a:t=3.	!	!LO:TX:a:t=3.	!	!LO:TX:a:t=3.	!	!	!	!	!	!	!	!	!	!
4D\	.	[2d\)	.	(>2B/)	.	(>2g/)	.	2r	.	2r	.	2r	.	8D\	.	8ccn\Lyy 8eeyy	.	8r	.	8ccn\L 8ee	8eee'\L	.
.	.	.	.	.	.	.	.	.	.	.	.	.	.	8r	.	8b\yy 8ddyy	.	8B\ 8d	.	8b\ 8dd	8ddd'\	.
4r	.	.	.	.	.	.	.	.	.	.	.	.	.	8D\	.	8a\yy 8ccnyy	.	8r	.	8a\ 8ccn	8cccn'\	.
.	.	.	.	.	.	.	.	.	.	.	.	.	.	8r	.	8g\Jyy 8byy	.	8B\ 8d	.	8g\J 8b	8bb'\J	.
!!LO:LB:g=original
=68	=68	=68	=68	=68	=68	=68	=68	=68	=68	=68	=68	=68	=68	=68	=68	=68	=68	=68	=68	=68	=68	=68
4D\	.	2d\_	.	(>2A/)	.	(>2f#/)	.	2r	.	2r	.	2r	.	8D\	.	8b'\Lyy 8ddyy	.	8r	.	8b'\L 8dd	8ddd'\L	.
.	.	.	.	.	.	.	.	.	.	.	.	.	.	8r	.	8a'\yy 8ccnyy	.	8A\ 8d	.	8a'\ 8ccn	8cccn'\	.
4r	.	.	.	.	.	.	.	.	.	.	.	.	.	8D\	.	8f#'\yy 8ayy	.	8r	.	8f#'\ 8a	8aa'\	.
.	.	.	.	.	.	.	.	.	.	.	.	.	.	8r	.	8d'\Jyy 8byy	.	8A\ 8d	.	8d'\J 8b	8bb'\J	.
=69	=69	=69	=69	=69	=69	=69	=69	=69	=69	=69	=69	=69	=69	=69	=69	=69	=69	=69	=69	=69	=69	=69
*	*	*	*	*	*	*	*	*	*	*	*	*	*	*	*	*^	*	*^	*	*^	*	*
!	!	!	!	!	!	!	!	!LO:TX:t=[segno]:problem=znak segno na kresce taktowej	!	!	!	!	!	!	!	!	!	!	!	!	!	!	!	!	!
!	!	!	!	!	!	!	!	!LO:TX:b:t=dal Segno\nal fine	!	!LO:TX:t=[segno]:problem=znak segno na kresce taktowej	!	!LO:TX:t=[segno]:problem=znak segno na kresce taktowej	!	!	!	!	!	!	!	!	!	!	!	!	!
4G\	.	4d\]	.	4B/)	.	4g/)	.	2r	.	2r	.	2r	.	4G\	.	4g'/	4g\	.	4d/	4B\	.	4g'/	4g\	4gg\	.
!LO:TX:t=[segno]:problem=znak segno na kresce taktowej	!	!LO:TX:t=[segno]:problem=znak segno na kresce taktowej	!	!	!	!	!	!	!	!	!	!	!	!LO:TX:t=[segno]:problem=znak segno na kresce taktowej	!	!	!	!	!LO:TX:t=[segno]:problem=znak segno na kresce taktowej	!	!	!	!	!	!
4r	.	4r	.	8r	.	8r	.	.	.	.	.	.	.	4r	.	8r	8ryy	.	4r	4ryy	.	8r	8ryy	8r	.
!	!	!	!	!	!	!	!	!	!	!	!	!	!	!	!	!	!	!	!	!	!	!	!	!LO:TX:a:t=dal Segno\nal fine	!
!	!	!	!	!	!	!LO:TX:t=[segno]:problem=znak segno na kresce taktowej	!	!	!	!	!	!	!	!	!	!	!	!	!	!	!	!	!	!LO:TX:t=[segno]:problem=znak segno na kresce taktowej	!
.	.	.	.	8a/	.	8aa\	ff	.	.	.	.	.	.	.	.	8a/yy	8a\yy	.	.	.	.	8a/	8a\	8aa\	.
*	*	*	*	*	*	*	*	*	*	*	*	*	*	*	*	*v	*v	*	*	*	*	*v	*v	*	*
*	*	*	*	*	*	*	*	*	*	*	*	*	*	*	*	*	*	*v	*v	*	*	*	*
!!LO:PB:g=original
==	==	==	==	==	==	==	==	==	==	==	==	==	==	==	==	==	==	==	==	==	==	==
*-	*-	*-	*-	*-	*-	*-	*-	*-	*-	*-	*-	*-	*-	*-	*-	*-	*-	*-	*-	*-	*-	*-
!!!system-decoration: s1,s2,s3,s4,s5[(s6,s7,s8)][(s9,s10,s11,s12)]
!!!RDF**kern: < = below
!!!RDF**kern: > = above
!!!ENC: Marta Chmielewska
!!!END: 2021-05-14
!!!ENC: Andrzej Kubiczek
!!!END: 2021-04-25
